!!!COM: L. van Beethoven
!!!OTL: Op. 59 No. 3 Movement 1 - String Quartet No. 9
**kern	**dynam	**kern	**dynam	**kern	**dynam	**kern	**dynam	**mxhm
*part4	*part4	*part3	*part3	*part2	*part2	*part1	*part1	*part1
*staff4	*	*staff3	*	*staff2	*	*staff1	*	*
*I"Cello	*	*I"Viola	*	*I"2nd Violin	*	*I"1st Violin	*	*
*clefF4	*	*clefC3	*	*clefG2	*	*clefG2	*	*
*k[f#c#g#]	*	*k[f#c#g#]	*	*k[f#c#g#]	*	*k[f#c#g#]	*	*
*M3/4	*	*M3/4	*	*M3/4	*	*M3/4	*	*
=1	=1	=1	=1	=1	=1	=1	=1	=1
!	!	!	!	!	!	!LO:TX:a:B:t=Introduzione	!	!
!	!LO:DY:a	!	!LO:DY:a	!	!	!LO:TX:a:B:t=Andante con moto	!	!
[2.D#X	f f >	[2.A	f >	[2.cX	>	[2.f#	f >	.C.#ivo7
=2	=2	=2	=2	=2	=2	=2	=2	=2
4D#]	.	4A]	.	4c]	.	4f#]	.	.
4r	]	4r	]	4r	]	4r	]	.
4r	.	4r	.	4r	.	4r	.	.
=3	=3	=3	=3	=3	=3	=3	=3	=3
[2.D	pp	[2.A	pp	[2.cX	pp	[2.f#	pp	IV7
=4	=4	=4	=4	=4	=4	=4	=4	=4
4D]	.	4A]	.	4c]	.	4f#]	.	.
4r	.	4r	.	4r	.	4r	.	.
4r	.	4r	.	4r	.	4r	.	.
=5	=5	=5	=5	=5	=5	=5	=5	=5
!LO:TX:b:i:t=sempre	!	!LO:TX:b:i:t=sempre	!	!LO:TX:b:i:t=sempre	!	!LO:TX:b:i:t=sempre	!	!
(2.C#	.	[2.A	.	2.c#	.	[2.f#	.	vi64
=6	=6	=6	=6	=6	=6	=6	=6	=6
(2BB)	pp	(2A]	pp	[2.d#X	pp	2.f#]	pp	V2/V
8.AATL	.	[4B)	.	.	.	.	.	.
32GG#LL	.	.	.	.	.	.	.	.
32AAJJJ	.	.	.	.	.	.	.	.
=7	=7	=7	=7	=7	=7	=7	=7	=7
2GG#	.	4B]	.	(4d#]	.	2.b	.	V43/V
.	.	4e	.	4g#	.	.	.	.
4FF#)	.	4d#X	.	4a)	.	.	.	.
=8	=8	=8	=8	=8	=8	=8	=8	=8
[2.FFX	f >	[2.d	f >	2.a	f >	[2.B [2.b	f >	ii%43
=9	=9	=9	=9	=9	=9	=9	=9	=9
!	!	!	!	!	!LO:DY:a	!	!	!
4FF]	p	4d]	p	4g#	p p	4B] 4b]	.	viio2
4r	.	4r	.	4r	.	4r	.	.
4r	]]	4r	]]	4r	]]	4r	]]	.
=10	=10	=10	=10	=10	=10	=10	=10	=10
!LO:TX:b:i:t=sempre	!	!LO:TX:b:i:t=sempre	!	!LO:TX:b:i:t=sempre	!LO:DY:a	!LO:TX:b:i:t=sempre	!	!
[2.FFX	pp	[2.d	pp	2.g#	pp pp	[2.B [2.b	.	.
=11	=11	=11	=11	=11	=11	=11	=11	=11
2.FF_	.	2.d]	.	2gX	.	2.B] 2.b]	.	.bVII2
.	.	.	.	[4GX	.	.	.	.
=12	=12	=12	=12	=12	=12	=12	=12	=12
(2FF]	.	[2.cX	.	2.G_	.	(2.ccX	.	.bIII6
[4EE)	.	.	.	.	.	.	.	.
=13	=13	=13	=13	=13	=13	=13	=13	=13
(2EE]	.	(2c]	.	(2G]	.	2ee	.	.
.	.	.	.	.	.	16qqggX/	.	viio43
[4DD)	.	4B)	.	4G#)	.	8.ffXTL	.	.
.	.	.	.	.	.	32eeLL	.	.
.	.	.	.	.	.	32ffJJJ)	.	.
=14	=14	=14	=14	=14	=14	=14	=14	=14
2.DD]	.	[2.E	.	[2.B-X	.	[2.ggX	.	iiio7(2)
=15	=15	=15	=15	=15	=15	=15	=15	=15
[2.CC#	.	2.E_	.	2.B-]	.	2.gg_	.	iiio7
=16	=16	=16	=16	=16	=16	=16	=16	=16
2.CC#]	.	2.E_	.	[2.A	.	2.gg]	.	V65/IV
=17	=17	=17	=17	=17	=17	=17	=17	=17
2.CCX	.	2.E]	.	(2A]	.	[2.aa	.	i6
.	.	.	.	4e	.	.	.	.
=18	=18	=18	=18	=18	=18	=18	=18	=18
[2.BBB	.	2FX	.	2d#X	.	2.aa_	.	II7(4)
.	.	4E	.	8.eTL	.	.	.	.
.	.	.	.	32d#LL	.	.	.	.
.	.	.	.	32eJJJ)	.	.	.	.
=19	=19	=19	=19	=19	=19	=19	=19	=19
2.BBB_	.	[2.D	.	[2.fX	.	2.aa]	.	ii%7
=20	=20	=20	=20	=20	=20	=20	=20	=20
2.BBB]	.	2.D_	.	2.f_	.	(2.gg#	.	viio65
=21	=21	=21	=21	=21	=21	=21	=21	=21
2.AAA	.	2.D]	.	2.f]	.	2.aa)	.	iv64
=22	=22	=22	=22	=22	=22	=22	=22	=22
[2.GG#	.	[2.D	.	[2.fX	.	[2.bb	.	viio7
=23	=23	=23	=23	=23	=23	=23	=23	=23
2.GG#_	.	2.D_	.	2.f_	.	2.bb_	.	.
=24	=24	=24	=24	=24	=24	=24	=24	=24
4GG#]	.	4D]	.	4f]	.	4bb]	.	.
4r	.	4r	.	4r	.	4r	.	.
4r	.	4r	.	4r	.	4r	.	.
=25	=25	=25	=25	=25	=25	=25	=25	=25
2.r	.	2.r	.	2.r	.	2.r	.	.
=26	=26	=26	=26	=26	=26	=26	=26	=26
[2.GG#	.	[2.FX	.	[2.B	.	[2.d	.	.
=27	=27	=27	=27	=27	=27	=27	=27	=27
2.GG#_	.	2.F_	.	2.B_	.	2.d_	.	.
=28	=28	=28	=28	=28	=28	=28	=28	=28
2.GG#_	.	2.F]	.	2.B_	.	2.d_	.	.
=29	=29	=29	=29	=29	=29	=29	=29	=29
2GG#]	.	2E	.	2B]	.	2d]	.	V65
=30||	=30||	=30||	=30||	=30||	=30||	=30||	=30||	=30||
*M4/4	*	*M4/4	*	*M4/4	*	*M4/4	*	*
*met(c)	*	*met(c)	*	*met(c)	*	*met(c)	*	*
!	!	!	!LO:DY:a	!	!	!LO:TX:a:B:t=Allegro vivace	!	!
8AA'	p	8E'	p p	8A'	.	8c#'	p	I
8r	.	8r	.	8r	.	8r	.	.
=31!|:	=31!|:	=31!|:	=31!|:	=31!|:	=31!|:	=31!|:	=31!|:	=31!|:
2.EE	.	2.E	.	2.G# 2.B	.	2.d	.	V7
4r	.	4r	.	4r	.	8b'L	.	.
.	.	.	.	.	.	16r	.	.
.	.	.	.	.	.	16cc#'Jk	.	.
=32	=32	=32	=32	=32	=32	=32	=32	=32
1r	.	1r	.	1r	.	(8eeL	.	.
.	.	.	.	.	.	8ddJ)	.	.
.	.	.	.	.	.	8b'L	.	.
.	.	.	.	.	.	16r	.	.
.	.	.	.	.	.	16cc#'Jk	.	.
.	.	.	.	.	.	(8cc#L	.	.
.	.	.	.	.	.	8bJ)	.	.
.	.	.	.	.	.	8g#'L	.	.
.	.	.	.	.	.	16r	.	.
.	.	.	.	.	.	16a'Jk	.	.
=33	=33	=33	=33	=33	=33	=33	=33	=33
1r	.	1r	.	1r	.	(8aL	.	.
.	.	.	.	.	.	8g#J)	.	.
.	.	.	.	.	.	8e'L	.	.
.	.	.	.	.	.	16r	.	.
.	.	.	.	.	.	16f#'Jk	.	.
.	.	.	.	.	.	(8f#'L	.	V9
.	.	.	.	.	.	8e'	.	.
.	.	.	.	.	.	8d'	.	.
.	.	.	.	.	.	8c#'J)	.	.
=34	=34	=34	=34	=34	=34	=34	=34	=34
1r	.	1r	.	1r	.	(8B'L	.	.
.	.	.	.	.	.	8c#'	.	.
.	.	.	.	.	.	8d'	.	.
.	.	.	.	.	.	8e'J)	.	.
.	.	.	.	.	.	(8f#'L	.	.
.	.	.	.	.	.	8e#X'	.	.
.	.	.	.	.	.	8f#'	.	.
.	.	.	.	.	.	8B'J)	.	.
=35	=35	=35	=35	=35	=35	=35	=35	=35
2r	.	4r	.	2r	.	(2d	.	viio
.	.	(4G#	.	.	.	.	.	.
4r	.	8A)	.	4r	.	8c#)	.	I
.	.	8r	.	.	.	8r	.	.
!	!LO:DY:a	!	!LO:DY:a	!	!LO:DY:a	!	!	!
8BB'	f f	8F#'	f	8B'	f	8d'	.	ii
8r	.	8r	.	8r	.	8r	.	.
=36	=36	=36	=36	=36	=36	=36	=36	=36
2.FF#	.	2.F#	.	2.A#X 2.c#	.	2.e	.	V7/ii
!	!	!	!	!	!LO:DY:a	!	!	!
4r	.	4r	.	4r	p	8ee'L	.	.
.	.	.	.	.	.	16r	.	.
.	.	.	.	.	.	16ff#'Jk	.	.
=37	=37	=37	=37	=37	=37	=37	=37	=37
1r	.	1r	.	1r	.	(8aaL	.	.
.	.	.	.	.	.	8ggXJ)	.	.
.	.	.	.	.	.	8ee'L	.	.
.	.	.	.	.	.	16r	.	.
.	.	.	.	.	.	16ff#'Jk	.	.
.	.	.	.	.	.	(8ff#L	.	.
.	.	.	.	.	.	8eeJ)	.	.
.	.	.	.	.	.	8cc#'L	.	.
.	.	.	.	.	.	16r	.	.
.	.	.	.	.	.	16dd'Jk	.	.
=38	=38	=38	=38	=38	=38	=38	=38	=38
1r	.	1r	.	1r	.	(8ddL	.	.
.	.	.	.	.	.	8cc#J)	.	.
.	.	.	.	.	.	8a#X'L	.	.
.	.	.	.	.	.	16r	.	.
.	.	.	.	.	.	16b'Jk	.	.
.	.	.	.	.	.	(8dd'L	.	.
.	.	.	.	.	.	8cc#'	.	.
.	.	.	.	.	.	8b'	.	.
.	.	.	.	.	.	8a#'J)	.	.
=39	=39	=39	=39	=39	=39	=39	=39	=39
1r	.	1r	.	1r	.	(8gX'L	.	.
.	.	.	.	.	.	8f#'	.	.
.	.	.	.	.	.	8e'	.	.
.	.	.	.	.	.	8d'J)	.	.
.	.	.	.	.	.	(8c#'L	.	.
.	.	.	.	.	.	8B'	.	.
.	.	.	.	.	.	8A#X'	.	.
.	.	.	.	.	.	8GX'J)	.	.
=40	=40	=40	=40	=40	=40	=40	=40	=40
1r	.	1r	.	1r	.	(8F#'L	.	.
.	.	.	.	.	.	8A#X'	.	.
.	.	.	.	.	.	8c#'	.	.
.	.	.	.	.	.	8f#'J)	.	.
.	.	.	.	.	.	(8a#X'L	.	.
.	.	.	.	.	.	8b'	.	.
.	.	.	.	.	.	8cc#'	.	.
.	.	.	.	.	.	8c#'J)	.	.
=41	=41	=41	=41	=41	=41	=41	=41	=41
2r	.	2r	.	4r	.	(2e	.	#viio/ii
.	.	.	.	(4A#X	.	.	.	.
4r	.	4r	.	8B)	.	8d)	.	ii
.	.	.	.	8r	.	8r	.	.
8BB'	pp	8D'	pp	8d'	pp	8f#'	pp	.
8r	.	8r	.	8r	.	8r	.	.
=42	=42	=42	=42	=42	=42	=42	=42	=42
!LO:TX:b:i:t=cresc.	!	!LO:TX:b:i:t=cresc.	!	!LO:TX:b:i:t=cresc.	!	!LO:TX:b:i:t=cresc.	!	!
1AA	.	1E	.	1c#	.	1gX	.	V7/IV
=43	=43	=43	=43	=43	=43	=43	=43	=43
!	!LO:DY:a	!	!LO:DY:a	!	!LO:DY:a	!	!	!
1EE	f f	1D 1E	f	1G# 1B	f	1B 1g#	.	V7
=44	=44	=44	=44	=44	=44	=44	=44	=44
8AAAL	.	[2C# [2E	.	[2A [2c#	.	[2a 4E 4c#	.	I[I6
8AA	.	.	.	.	.	.	.	.
8AA	.	.	.	.	.	.	.	.
8AAJ	.	.	.	.	.	.	.	.
8AAL	.	8C#L] 8E]	.	8A] 8c#]	.	8aL]	.	.
8AA	.	(16C#L	.	(16aLL	.	(16aaL	.	.
.	.	16DJJ)	.	16bJJ)	.	16bbJJ)	.	.
8AA	.	8E'L	sf	8cc#'L	sf	8ccc#'L	sf	.
8AAJ	.	8C#'J	.	8a'J	.	8aa'J	.	.
=45	=45	=45	=45	=45	=45	=45	=45	=45
8AAL	.	8D'L	.	8f#'L	.	8ff#'L	.	IV
8AAA	.	(16DL	.	(16f#L	.	(16ff#L	.	.
.	.	16EJJ)	.	16g#JJ)	.	16gg#JJ)	.	.
8AA	.	8F#'L	sf	8a'L	sf	8aa'L	sf	.
8AAJ	.	8D'J	.	8f#'J	.	8ff#'J	.	.
8AAL	.	8B'L	.	8d'L	.	8dd'L	.	viio6
8AAA	.	(16G#L	.	(16BL	.	(16bL	.	.
.	.	16AJJ)	.	16c#JJ)	.	16cc#JJ)	.	.
8AA	.	8B'L	sf	8d'L	sf	8dd'L	sf	.
8AAJ	.	8G#'J	.	8B'J	.	8b'J	.	.
=46	=46	=46	=46	=46	=46	=46	=46	=46
8AAL	.	(8AL	.	(8c#L	.	(8cc#L	.	I
8AAA	.	8EJ)	.	8eJ)	.	8eeJ)	.	.
8AA	.	[4C#	.	[4a	.	[4aa	.	I6
8AAJ	.	.	.	.	.	.	.	.
8AAL	.	8C#L]	.	8aL]	.	8aaL]	.	.
8AA	.	(16C#L	.	(16aL	.	(16aaL	.	.
.	.	16DJJ)	.	16bJJ)	.	16bbJJ)	.	.
8AA	.	8E'L	.	8cc#'L	.	8ccc#'L	.	.
8AAJ	.	8C#'J	.	8a'J	.	8aa'J	.	.
=47	=47	=47	=47	=47	=47	=47	=47	=47
8AAL	.	8D'L	.	8f#'L	.	8ff#'L	.	IV
8AAA	.	(16DL	.	(16f#L	.	(16ff#L	.	.
.	.	16EJJ)	.	16g#JJ)	.	16gg#JJ)	.	.
8AA	.	8F#'L	.	8a'L	.	8aa'L	.	.
8AAJ	.	8D'J	.	8f#'J	.	8ff#'J	.	.
8AAL	.	8B'L	.	8d'L	.	8dd'L	.	viio6
8AAA	.	(16G#L	.	(16BL	.	(16bL	.	.
.	.	16AJJ)	.	16c#JJ)	.	16cc#JJ)	.	.
8AA	.	8B'L	.	8d'L	.	8dd'L	.	.
8AAJ	.	8G#'J	.	8B'J	.	8b'J	.	.
=48	=48	=48	=48	=48	=48	=48	=48	=48
8AAL	.	(8AL	.	(8c#L	.	(8cc#L	.	I]
8AAA	.	8EJ)	.	8eJ)	.	8eeJ)	.	.
8AA	.	4C#	.	4a	.	4aa	.	.
8AAJ	.	.	.	.	.	.	.	.
2FF#	.	8r	.	8r	.	8r	.	V7/ii
.	.	(16A#XLL	.	(16c#LL	.	(16cc#LL	.	.
.	.	16BJJ)	.	16dJJ)	.	16ddJJ)	.	.
.	.	8c#'L	.	8e'L	.	8ee'L	.	.
.	.	8A#'J	.	8c#'J	.	8cc#'J	.	.
=49	=49	=49	=49	=49	=49	=49	=49	=49
8BBL	.	(8BL	.	(8dL	.	(8ddL	.	ii
8BBB	.	8F#J)	.	8f#J)	.	8ff#J)	.	.
8BB	.	4D	.	4b	.	4bb	.	.
8BBJ	.	.	.	.	.	.	.	.
2FF#	.	8r	.	8r	.	8r	.	V7/ii
.	.	(16A#XLL	.	(16c#LL	.	(16cc#LL	.	.
.	.	16BJJ)	.	16dJJ)	.	16ddJJ)	.	.
.	.	8c#'L	.	8e'L	.	8ee'L	.	.
.	.	8A#'J	.	8c#'J	.	8cc#'J	.	.
=50	=50	=50	=50	=50	=50	=50	=50	=50
(8F#L	.	(8BL	.	(8dL	.	(8ddL	.	ii64
8DJ)	.	8F#J)	.	8f#J)	.	8ff#J)	.	.
!LO:TX:a:i:t=ten.	!	!LO:TX:a:i:t=ten.	!	!LO:TX:a:i:t=ten.	!	!LO:TX:a:i:t=ten.	!	!
4BB	.	4D	.	4b	.	4bb	.	ii
(8BL	.	(8dL	.	(8bL	.	(8gg#L	.	V64
8G#J)	.	8BJ)	.	8ddJ)	.	8bbJ)	.	.
!LO:TX:a:i:t=ten.	!	!LO:TX:a:i:t=ten.	!	!LO:TX:a:i:t=ten.	!	!LO:TX:a:i:t=ten.	!	!
4E	.	4B	.	4gg#	.	4ddd	.	V7
=51	=51	=51	=51	=51	=51	=51	=51	=51
(8EL	.	(8c#L	.	(8cc#L	.	(8aaL	.	I64
8C#J)	.	8AJ)	.	8aaJ)	.	8ccc#J)	.	.
!	!	!	!	!	!	!LO:TX:a:i:t=ten.	!	!
!LO:TX:a:i:t=ten.	!	!LO:TX:a:i:t=ten.	!	!	!	!LO:TX:a:i:t=ten.	!	!
4AA	.	4E	.	4ccc#	.	4eee	.	I
(8DL	.	(8F#L	.	(8ff#L	.	(8aaL	.	IV
8AAJ)	.	8DJ)	.	8aaJ)	.	8dddJ)	.	.
!	!	!	!	!	!	!LO:TX:a:i:t=ten.	!	!
!LO:TX:a:i:t=ten.	!	!LO:TX:a:i:t=ten.	!	!	!	!LO:TX:a:i:t=ten.	!	!
4DD	.	4AA	.	4ddd	.	4fff#	.	.
=52	=52	=52	=52	=52	=52	=52	=52	=52
(8EEL	.	[2AA	.	[2ccc#	.	[2eee	.	V[I64
16FF#L	.	.	.	.	.	.	.	.
16GG#JJ	.	.	.	.	.	.	.	.
16AALL	.	.	.	.	.	.	.	.
16BB	.	.	.	.	.	.	.	.
16C#	.	.	.	.	.	.	.	.
16DJJ)	.	.	.	.	.	.	.	.
[2E	.	(8AAL]	.	(8ccc#L]	.	(8eeeL]	.	V7
.	.	16BBL	.	16bbL	.	16dddL	.	.
.	.	16C#JJ	.	16aaJJ	.	16ccc#JJ	.	.
.	.	16DLL	.	16gg#LL	.	16bbLL	.	.
.	.	16E	.	16ff#	.	16aa	.	.
.	.	16F#	.	16ee	.	16gg#	.	.
.	.	16G#JJ)	.	16ddJJ)	.	16ff#JJ)	.	.
=53	=53	=53	=53	=53	=53	=53	=53	=53
8EL]	.	(4A	.	(4cc#	.	(4ee	.	I64
8E	.	.	.	.	.	.	.	.
8E	.	8BL	.	8bL	.	8ddL	.	.
8EJ	.	8c#J	.	8aJ)	.	8cc#J)	.	.
8EL	.	8dL	.	(4aT	.	(4cc#t	.	.
8E	.	8d#X	.	.	.	.	.	.
.	.	.	.	16qqg#/LL	.	16qqb/LL	.	V7]
.	.	.	.	16qqa/JJ	.	16qqcc#/JJ	.	.
8E	.	8e	.	8bL	.	8ddL	.	.
8EJ	.	8dJ)	.	8g#J)	.	8bJ)	.	.
=54	=54	=54	=54	=54	=54	=54	=54	=54
(8AL	.	(8c#L	.	(8aL	.	(8cc#L	.	I
8E)	.	8A)	.	8cc#)	.	8ee)	.	.
8C#'	.	8E'	.	8ee'	.	8aa'	.	I6
8C#'J	.	8E'J	.	8ee'J	.	8aa'J	.	.
(8EL	.	(8AL	.	(8cc#L	.	(8eeL	.	I64
8C#)	.	8E)	.	8ee)	.	8aa)	.	.
8AA'	.	8C#'	.	8aa'	.	8ccc#'	.	I
8AA'J	.	8C#'J	.	8aa'J	.	8ccc#'J	.	.
=55	=55	=55	=55	=55	=55	=55	=55	=55
(8DL	.	(8AL	.	(8ddL	.	(8ff#L	.	IV
8AA)	.	8F#)	.	8ff#)	.	8aa)	.	.
8FF#'	.	8D'	.	8ff#'	.	8ddd'	.	IV6
8FF#'J	.	8D'J	.	8ff#'J	.	8ddd'J	.	.
(8AAL	.	(8F#L	.	(8ff#L	.	(8aaL	.	.
8FF#)	.	8D)	.	8aa)	.	8ddd)	.	.
8DD'	.	8AA'	.	8ddd'	.	8fff#'	.	IV
8DD'J	.	8AA'J	.	8ddd'J	.	8fff#'J	.	.
=56	=56	=56	=56	=56	=56	=56	=56	=56
[2EE	.	(8AAL	.	[2ccc#	.	[2eee	.	V(64)
.	.	16BBL	.	.	.	.	.	.
.	.	16C#JJ	.	.	.	.	.	.
.	.	16DLL	.	.	.	.	.	.
.	.	16E	.	.	.	.	.	.
.	.	16F#	.	.	.	.	.	.
.	.	16G#JJ)	.	.	.	.	.	.
(16EELL]	.	(16ALL	.	(8ccc#L]	.	(8eeeL]	.	V7
16AA	.	16C#	.	.	.	.	.	.
16BB	.	16D	.	16bbL	.	16dddL	.	.
16C#JJ	.	16EJJ	.	16aaJJ	.	16ccc#JJ	.	.
16DLL	.	16F#LL	.	16gg#LL	.	16bbLL	.	.
16E	.	16G#	.	16ff#	.	16aa	.	.
16F#	.	16A	.	16ee	.	16gg#	.	.
16G#JJ)	.	16BJJ)	.	16ddJJ)	.	16ff#JJ)	.	.
=57	=57	=57	=57	=57	=57	=57	=57	=57
8A	.	8c#	p	8cc#	.	8ee	.	I\\
8r	.	8r	.	8r	.	8r	.	.
4r	.	4r	.	4r	.	8eee	.	.
.	.	.	.	.	.	8r	.	.
2r	.	2r	.	2r	.	8ccc#	.	.
.	.	.	.	.	.	8r	.	.
.	.	.	.	.	.	8aaa	.	.
.	.	.	.	.	.	8r	.	.
=58	=58	=58	=58	=58	=58	=58	=58	=58
!	!	!	!	!	!LO:DY:a	!	!	!
1r	.	4r	p	4r	p	[2E	.	V7(6#4)
.	.	8A#X	.	8c#	p	.	.	.
.	.	8r	.	8r	.	.	.	.
.	.	[2B	.	[2d	.	(8EL]	.	V7
.	.	.	.	.	.	16F#L	.	.
.	.	.	.	.	.	16G#JJ	.	.
.	.	.	.	.	.	16ALL	.	.
.	.	.	.	.	.	16B	.	.
.	.	.	.	.	.	16c#	.	.
.	.	.	.	.	.	16dJJ)	.	.
=59	=59	=59	=59	=59	=59	=59	=59	=59
2r	.	2B_	.	2d_	.	(8eL	.	.
.	.	.	.	.	.	16f#L	.	.
.	.	.	.	.	.	16g#JJ	.	.
.	.	.	.	.	.	16aLL	.	.
.	.	.	.	.	.	16b	.	.
.	.	.	.	.	.	16cc#	.	.
.	.	.	.	.	.	16ddJJ)	.	.
2EE	p	(4B]	.	4.d]	.	(4ee	.	.
.	.	8G#L	.	.	.	8ddL	.	.
.	.	8DJ)	.	8B	.	8bJ)	.	.
=60	=60	=60	=60	=60	=60	=60	=60	=60
4AA	.	4C#	.	(16ALL	.	4a	.	I
.	.	.	.	16c#	.	.	.	.
.	.	.	.	16B	.	.	.	.
.	.	.	.	16dJJ	.	.	.	.
4r	.	4r	.	16c#LL	.	4r	.	.
.	.	.	.	16e	.	.	.	.
.	.	.	.	16d	.	.	.	.
.	.	.	.	16f#JJ	.	.	.	.
8r	.	8r	.	2e)	.	8r	.	I6
8C#L	.	8EL	.	.	.	8AL	.	.
8C#	.	8E	.	.	.	8A	.	.
8C#J	.	8EJ	.	.	.	8AJ	.	.
=61	=61	=61	=61	=61	=61	=61	=61	=61
4BB	.	4E	.	(16dLL	.	4G#	.	V43
.	.	.	.	16f#	.	.	.	.
.	.	.	.	16e	.	.	.	.
.	.	.	.	16c#JJ	.	.	.	.
4r	.	4r	.	16BLL	.	4r	.	.
.	.	.	.	16d	.	.	.	.
.	.	.	.	16c#	.	.	.	.
.	.	.	.	16AJJ	.	.	.	.
8r	.	8r	.	16G#LL	.	8r	.	V7
.	.	.	.	16B	.	.	.	.
8EEL	.	8BBL	.	16A	.	8dd	.	.
.	.	.	.	16F#JJ	.	.	.	.
8EE	.	(8BB	.	8EL	.	8ddL	.	.
8EEJ	.	8DJ	.	16F#L	.	8bJ	.	.
.	.	.	.	16G#JJ	.	.	.	.
=62	=62	=62	=62	=62	=62	=62	=62	=62
4AA	.	4C#)	.	4A)	.	(16aLL	.	I
.	.	.	.	.	.	16cc#	.	.
.	.	.	.	.	.	16b	.	.
.	.	.	.	.	.	16ddJJ	.	.
4r	.	4r	.	4r	.	16cc#LL	.	.
.	.	.	.	.	.	16ee	.	.
.	.	.	.	.	.	16dd	.	.
.	.	.	.	.	.	16ff#JJ	.	.
8r	.	8r	.	8r	.	2ee)	.	I6
8c#L	.	8eL	.	8aL	.	.	.	.
8c#	.	8e	.	8a	.	.	.	.
8c#J	.	8eJ	.	8aJ	.	.	.	.
=63	=63	=63	=63	=63	=63	=63	=63	=63
4B	.	4e	.	4g#	.	(16ddLL	.	V43
.	.	.	.	.	.	16ff#	.	.
.	.	.	.	.	.	16ee	.	.
.	.	.	.	.	.	16cc#JJ	.	.
4r	.	4r	.	4r	.	16bLL	.	.
.	.	.	.	.	.	16dd	.	.
.	.	.	.	.	.	16cc#	.	.
.	.	.	.	.	.	16aJJ	.	.
8r	.	8r	.	8r	.	16g#LL	.	V7
.	.	.	.	.	.	16b	.	.
8EEL	.	8BBL	.	8dL	.	16a	.	.
.	.	.	.	.	.	16f#JJ	.	.
8EE	.	(8BB	.	(8d	.	8eL	.	.
8EEJ	.	8DJ)	.	8BJ)	.	16f#L	.	.
.	.	.	.	.	.	16g#JJ)	.	.
=64	=64	=64	=64	=64	=64	=64	=64	=64
(16AALL	.	4C#	.	4A	.	4a	.	I
16C#	.	.	.	.	.	.	.	.
16BB	.	.	.	.	.	.	.	.
16DJJ	.	.	.	.	.	.	.	.
16C#LL	.	4r	.	4r	.	4r	.	.
16E	.	.	.	.	.	.	.	.
16D	.	.	.	.	.	.	.	.
16F#JJ)	.	.	.	.	.	.	.	.
(16ELL	.	2r	.	2r	.	2r	.	.
16A	.	.	.	.	.	.	.	.
16G#	.	.	.	.	.	.	.	.
16BJJ	.	.	.	.	.	.	.	.
16ALL	.	.	.	.	.	.	.	.
16c#	.	.	.	.	.	.	.	.
16B	.	.	.	.	.	.	.	.
16dJJ)	.	.	.	.	.	.	.	.
=65	=65	=65	=65	=65	=65	=65	=65	=65
(16c#LL	.	1r	.	1r	.	1r	.	.
16e	.	.	.	.	.	.	.	.
16d	.	.	.	.	.	.	.	.
16f#JJ)	.	.	.	.	.	.	.	.
8e'L	.	.	.	.	.	.	.	.
8e'J	.	.	.	.	.	.	.	.
8e'L	.	.	.	.	.	.	.	.
8e'	.	.	.	.	.	.	.	.
8e'	.	.	.	.	.	.	.	.
8e'J	.	.	.	.	.	.	.	.
=66	=66	=66	=66	=66	=66	=66	=66	=66
[1e	.	2r	.	2r	.	4r	.	.
.	.	.	.	.	.	8b#X'	.	.
.	.	.	.	.	.	8r	.	.
.	.	4r	.	4r	.	[2cc#	.	#viio7/V
.	.	8A#X'	.	8gX'	.	.	.	.
.	.	8r	.	8r	.	.	.	.
=67	=67	=67	=67	=67	=67	=67	=67	=67
1e_	> < [[	(2B	<	(2f#	<	(4cc#]	<	ii(+2)
.	.	.	.	.	.	4cc#t	.	.
.	.	.	.	.	.	16qqb#X/LL	>	.
.	.	.	.	.	.	16qqcc#/JJ	.	.
.	.	2E) 2d	>]	2g#)	>]	4ee	.	V7
.	.	.	.	.	.	8ddL	]	.
.	.	.	.	.	.	8b#J)	]]	.
=68	=68	=68	=68	=68	=68	=68	=68	=68
1e_	[	2.A	]	2.c# 2.a	]	8a	.	I\\
.	.	.	.	.	.	8r	.	.
.	.	.	.	.	.	8b#X'	.	.
.	.	.	.	.	.	8r	.	.
.	.	.	.	.	.	[2cc#	.	#viio7/V
.	.	8A#X'	.	8gX'	.	.	.	.
.	.	8r	.	8r	.	.	.	.
=69	=69	=69	=69	=69	=69	=69	=69	=69
1e_	< > ]]	2B	<	2f#	<	(4cc#]	<	ii(+2)
.	.	.	.	.	.	4cc#t	.	.
.	.	2E 2d	[ > ]]	2g#	[ > ]]	4ee	[ >	V7
.	.	.	.	.	.	8ddL	.	.
.	.	.	.	.	.	8bJ)	]]	.
=70	=70	=70	=70	=70	=70	=70	=70	=70
(4e]	]	2.A	.	2.a	.	8cc#	.	I\\
.	.	.	.	.	.	8r	.	.
8dL	.	.	.	.	.	8b#X	.	.
8c#J)	.	.	.	.	.	8r	.	.
(12c#L	.	.	.	.	.	[2cc#	.	V.ii6
12B	.	.	.	.	.	.	.	.
12AJ	.	.	.	.	.	.	.	.
12G#L	.	(4A	.	(8c#L	.	.	.	.
12A	.	.	.	.	.	.	.	.
.	.	.	.	8f#J)	.	.	.	.
12F#J)	.	.	.	.	.	.	.	.
=71	=71	=71	=71	=71	=71	=71	=71	=71
4G#	.	4B	.	(4e#X	.	(4cc#]	.	V43/ii
4E#X	.	4G#	.	2g#	.	4ee#Xt	.	#viio/ii
.	.	.	.	.	.	16qqdd#X/LL	.	V7/ii
.	.	.	.	.	.	16qqee#/JJ	.	.
4C#	.	4E#X	.	.	.	4gg#	.	.
4E#	.	4G#)	.	[4c#)	.	8ee#L	.	.
.	.	.	.	.	.	8bJ)	.	.
=72	=72	=72	=72	=72	=72	=72	=72	=72
4F#	.	8A'	.	(8c#L]	.	8a	.	ii
.	.	8r	.	16d#XL	.	8r	.	.
.	.	.	.	16e#XJJ)	.	.	.	.
4r	.	8G#'	.	8f#'L	.	4r	.	V7/vi
.	.	8r	.	8f#'J	.	.	.	.
4r	.	[2A	.	(4f#	.	(8cc#L	.	ii6
.	.	.	.	.	.	16dd#XL	.	.
.	.	.	.	.	.	16ee#XJJ)	.	.
8CX'	.	.	.	4e	.	8ff#'L	.	ii%43
8r	.	.	.	.	.	8ff#'J	.	.
=73	=73	=73	=73	=73	=73	=73	=73	=73
2.BB	.	8A]	.	8d#XL)	.	[2ff#	.	V7
.	.	8r	.	(16d#L	.	.	.	.
.	.	.	.	16e#XJJ)	.	.	.	.
.	.	8G#'	.	8f#'L	.	.	.	.
.	.	8r	.	8f#'J	.	.	.	.
.	.	[2A	.	(4f#	.	8ff#L]	.	.
.	.	.	.	.	.	(16dd#XL	.	.
.	.	.	.	.	.	16ee#XJJ)	.	.
8CX'	.	.	.	4e	.	8ff#'L	.	ii%43
8r	.	.	.	.	.	8ff#'J	.	.
=74	=74	=74	=74	=74	=74	=74	=74	=74
!LO:TX:b:i:t=cresc.	!	!LO:TX:b:i:t=cresc.	!	!LO:TX:b:i:t=cresc.	!	!LO:TX:a:i:t=cresc.	!	!
4.BB	.	8AL]	.	8d#XL)	.	(2ff#	.	ii%43
.	.	8G#'J	.	(16d#L	.	.	.	.
.	.	.	.	16eJJ	.	.	.	.
.	.	4.A	.	16f#LL	.	.	.	.
.	.	.	.	16e	.	.	.	.
8CX'	.	.	.	16d#	.	.	.	.
.	.	.	.	16eJJ)	.	.	.	.
4.BB	.	.	.	[2f#	.	8ff#L)	.	V7
.	.	8G#'	.	.	.	(16dd#XL	.	.
.	.	.	.	.	.	16eeJJ	.	.
.	.	[4A	.	.	.	16ff#LL	.	.
.	.	.	.	.	.	16ee	.	.
8C'	.	.	.	.	.	16dd#	.	ii%43
.	.	.	.	.	.	16eeJJ)	.	.
=75	=75	=75	=75	=75	=75	=75	=75	=75
4.BB	.	8A]	.	(8f#L]	.	[4ff#	.	V7
.	.	8G#'	.	16d#XL	.	.	.	.
.	.	.	.	16eJJ)	.	.	.	.
.	.	4.A	.	[4f#	.	(8ff#L]	.	ii%43
8CX'	.	.	.	.	.	16dd#XL	.	.
.	.	.	.	.	.	16eeJJ)	.	.
4.BB	.	.	.	(8f#L]	.	[4ff#	.	V7
.	.	8G#'	.	16d#L	.	.	.	.
.	.	.	.	16eJJ)	.	.	.	.
.	.	[4A	.	[4f#	.	(8ff#L]	.	ii%43
8C'	.	.	.	.	.	16dd#L	.	.
.	.	.	.	.	.	16eeJJ)	.	.
=76	=76	=76	=76	=76	=76	=76	=76	=76
!	!LO:DY:a	!	!LO:DY:a	!	!	!	!	!
8BB	f f	8A]	f	8f#L]	.	8ff#L	f	V7
8r	.	8r	.	(16dd#XL	.	(16ff#L	.	.
.	.	.	.	16eeJJ	.	16gg#JJ	.	.
8BB	.	8d#X 8f#	.	8ff#'L)	.	8aa'L)	.	.
8r	.	8r	.	(16ff#L	.	(16aaL	.	.
.	.	.	.	16gg#JJ	.	16bbJJ	.	.
8BB	.	8d# 8f#	.	8aa'L)	.	8ccc#'L)	.	V9
8r	.	8r	.	(16dd#L	.	(16ff#L	.	.
.	.	.	.	16eeJJ	.	16gg#JJ	.	.
8BB	.	8D#X 8F#	.	8ff#'L)	.	8aa'L)	.	V7
8r	.	8r	.	(16bL	.	(16dd#XL	.	.
.	.	.	.	16cc#JJ)	.	16eeJJ)	.	.
=77	=77	=77	=77	=77	=77	=77	=77	=77
8BB	.	8BB 8A	.	16dd#XLL	.	16ff#LL	.	.
.	.	.	.	16ee	.	16gg#	.	.
8r	.	8r	.	16ff#	.	16aa	.	.
.	.	.	.	16gg#JJ	.	16bbJJ	.	.
4r	.	4r	.	16ff#LL	.	16aaLL	.	.
.	.	.	.	16ee	.	16gg#	.	.
.	.	.	.	16dd#	.	16ff#	.	.
.	.	.	.	16cc#JJ	.	16eeJJ	.	.
2r	.	2r	.	16bLL	.	16dd#XLL	.	.
.	.	.	.	16cc#	.	16ee	.	.
.	.	.	.	16b	.	16dd#	.	.
.	.	.	.	16aJJ	.	16cc#JJ	.	.
.	.	.	.	16g#LL	.	16bLL	.	.
.	.	.	.	16a	.	16cc#	.	.
.	.	.	.	16g#	.	16b	.	.
.	.	.	.	16f#JJ	.	16aJJ	.	.
=78	=78	=78	=78	=78	=78	=78	=78	=78
!	!LO:DY:a	!	!LO:DY:a	!	!LO:DY:a	!	!	!
8EE	f f	8BB 8G#	f	4G# 4e	f	8B 8g#	.	I
8r	.	8r	.	.	.	8r	.	.
!	!	!	!	!	!LO:DY:a	!	!	!
4r	.	4r	.	4r	p	(16BLL	.	V
.	.	.	.	.	.	16c#	.	.
.	.	.	.	.	.	16d#X	.	.
.	.	.	.	.	.	16BJJ	.	.
2r	.	2r	.	2r	.	16eLL	.	I
.	.	.	.	.	.	16f#	.	.
.	.	.	.	.	.	16g#	.	.
.	.	.	.	.	.	16eJJ)	.	.
.	.	.	.	.	.	8b'L	.	.
.	.	.	.	.	.	8b'J	.	.
=79	=79	=79	=79	=79	=79	=79	=79	=79
8AA	p	4r	.	8A 8c#	p	(4b	.	IV(9)
8r	.	.	.	8r	.	.	.	.
4r	.	(16C#LL	p	4r	.	[2.a)	.	ii
.	.	16D#X	.	.	.	.	.	.
.	.	16E#X	.	.	.	.	.	.
.	.	16C#JJ	.	.	.	.	.	.
2r	.	16F#LL	.	2r	.	.	.	.
.	.	16G#	.	.	.	.	.	.
.	.	16A	.	.	.	.	.	.
.	.	16F#JJ)	.	.	.	.	.	.
.	.	8c#'L	.	.	.	.	.	.
.	.	8c#'J	.	.	.	.	.	.
=80	=80	=80	=80	=80	=80	=80	=80	=80
4r	.	(4c#	.	2r	.	2.a]	.	V7
(16BBBLL	.	2B)	.	.	.	.	.	.
16CC#	.	.	.	.	.	.	.	.
16DD#X	.	.	.	.	.	.	.	.
16BBBJJ	.	.	.	.	.	.	.	.
16FF#LL	.	.	.	4r	.	.	.	.
16GG#	.	.	.	.	.	.	.	.
16AA	.	.	.	.	.	.	.	.
16FF#JJ)	.	.	.	.	.	.	.	.
(16BBLL	.	(4B	.	(8f#L	.	(4dd#X	.	.
16AA	.	.	.	.	.	.	.	.
16GG#	.	.	.	16g#L	.	.	.	.
16FF#JJ)	.	.	.	16aJJ)	.	.	.	.
=81	=81	=81	=81	=81	=81	=81	=81	=81
8GG#	.	8E)	.	(16bLL	.	8ee')	.	I6
.	.	.	.	16cc#	.	.	.	.
8r	.	8r	.	16dd#X	.	8r	.	.
.	.	.	.	16eeJJ	.	.	.	.
8AA	.	8e	.	16dd#LL	.	8ccc#	.	IV
.	.	.	.	16cc#	.	.	.	.
8r	.	8r	.	16b	.	8r	.	.
.	.	.	.	16aJJ)	.	.	.	.
8BB	.	8e	.	(16g#LL	.	8bb	.	V(64)
.	.	.	.	16a	.	.	.	.
8r	.	8r	.	16b	.	8r	.	.
.	.	.	.	16cc#JJ	.	.	.	.
8BB	.	8A	.	16bLL	.	8dd#X	.	V7
.	.	.	.	16a	.	.	.	.
8r	.	8r	.	16g#	.	8r	.	.
.	.	.	.	16f#JJ)	.	.	.	.
=82	=82	=82	=82	=82	=82	=82	=82	=82
8EE	f	8G#	f	8e	f	8ee	f	I\\
8r	.	8r	.	8r	.	8r	.	.
!	!LO:DY:a	!	!	!	!	!	!	!
4r	p	(16BBLL	.	4r	.	4r	.	V
.	.	16C#	.	.	.	.	.	.
.	.	16D#X	.	.	.	.	.	.
.	.	16BBJJ	.	.	.	.	.	.
2r	.	16ELL	.	2r	.	2r	.	I
.	.	16F#	.	.	.	.	.	.
.	.	16G#	.	.	.	.	.	.
.	.	16EJJ)	.	.	.	.	.	.
.	.	8B'L	.	.	.	.	.	.
.	.	8B'J	.	.	.	.	.	.
=83	=83	=83	=83	=83	=83	=83	=83	=83
1r	.	(4B	.	1r	.	4r	.	.
.	.	[2.A)	.	.	.	(16cc#LL	p	V(6)/ii
.	.	.	.	.	.	16dd#X	.	.
.	.	.	.	.	.	16ee#X	.	.
.	.	.	.	.	.	16cc#JJ	.	.
.	.	.	.	.	.	16ff#LL	.	ii6
.	.	.	.	.	.	16gg#	.	.
.	.	.	.	.	.	16aa	.	.
.	.	.	.	.	.	16ff#JJ)	.	.
.	.	.	.	.	.	8ccc#'L	.	.
.	.	.	.	.	.	8ccc#'J	.	.
=84	=84	=84	=84	=84	=84	=84	=84	=84
1r	.	2A]	.	4r	.	(4ccc#	.	V2(9)
.	.	.	.	(16d#XLL	p	[2.bb)	.	V43/ii
.	.	.	.	16e	.	.	.	.
.	.	.	.	16f#	.	.	.	.
.	.	.	.	16d#JJ	.	.	.	.
.	.	2G#	.	16e#XLL	.	.	.	.
.	.	.	.	16f#	.	.	.	.
.	.	.	.	16g#	.	.	.	.
.	.	.	.	16e#JJ)	.	.	.	.
.	.	.	.	8cc#'L	.	.	.	.
.	.	.	.	8cc#'J	.	.	.	.
=85	=85	=85	=85	=85	=85	=85	=85	=85
4r	.	(2.F#	.	(2cc#	.	(4bb]	.	ii(4)
(16FF#LL	p	.	.	.	.	[2.aa)	.	ii64
16GG#	.	.	.	.	.	.	.	.
16AA	.	.	.	.	.	.	.	.
16FF#JJ	.	.	.	.	.	.	.	.
16C#LL	.	.	.	4a	.	.	.	.
16D#X	.	.	.	.	.	.	.	.
16E#X	.	.	.	.	.	.	.	.
16C#JJ)	.	.	.	.	.	.	.	.
8F#'L	.	4C#)	.	(4f#)	.	.	.	.
8F#'J	.	.	.	.	.	.	.	.
=86	=86	=86	=86	=86	=86	=86	=86	=86
!	!LO:DY:a	!	!	!	!	!	!	!
[1G#	pp pp	(2BB#X	.	(4f#)	pp	(4aa]	pp	V65/vi
.	.	.	.	4d#X	.	4gg#	.	.
.	.	4C#	.	4e	.	4ee	.	vi64
.	.	4E)	.	4g#)	.	4cc#	.	vi6
=87	=87	=87	=87	=87	=87	=87	=87	=87
4G#]	.	(4D#X	.	(4f#	.	4b#X	.	V43/vi
[2.GG#	.	4BB#X	.	4d#X	.	4g#	.	V7/vi
.	.	4C#	.	4G#	.	4e	.	vi64
.	.	4E)	.	4G#)	.	4c#)	.	.
=88	=88	=88	=88	=88	=88	=88	=88	=88
!	!	!LO:TX:b:i:t=cresc.	!	!LO:TX:b:i:t=cresc.	!	!LO:TX:b:i:t=cresc.	!	!
(4GG#]	.	[1E	.	[1G# [1B	.	[1d	.	V7
!LO:TX:b:i:t=cresc.	!	!	!	!	!	!	!	!
(16GG#LL)	.	.	.	.	.	.	.	.
16AA	.	.	.	.	.	.	.	.
16BB	.	.	.	.	.	.	.	.
16AAJJ	.	.	.	.	.	.	.	.
16GG#LL	.	.	.	.	.	.	.	.
16AA	.	.	.	.	.	.	.	.
16GG#	.	.	.	.	.	.	.	.
16FF#JJ	.	.	.	.	.	.	.	.
16EELL	.	.	.	.	.	.	.	.
16FF#	.	.	.	.	.	.	.	.
16GG#	.	.	.	.	.	.	.	.
16AAJJ)	.	.	.	.	.	.	.	.
=89	=89	=89	=89	=89	=89	=89	=89	=89
(16BBLL	.	2E]	.	2G#] 2B]	.	2d]	.	V43
16C#	.	.	.	.	.	.	.	.
16D	.	.	.	.	.	.	.	.
16C#JJ	.	.	.	.	.	.	.	.
16BBLL	.	.	.	.	.	.	.	.
16AA	.	.	.	.	.	.	.	.
16GG#	.	.	.	.	.	.	.	.
16FF#JJ	.	.	.	.	.	.	.	.
16EELL	.	[2E	.	2d	.	2g#	.	V7
16FF#	.	.	.	.	.	.	.	.
16EE	.	.	.	.	.	.	.	.
16DDJJ	.	.	.	.	.	.	.	.
16CC#LL	.	.	.	.	.	.	.	.
16DD	.	.	.	.	.	.	.	.
16CC#	.	.	.	.	.	.	.	.
16BBBJJ)	.	.	.	.	.	.	.	.
=90	=90	=90	=90	=90	=90	=90	=90	=90
!	!	!	!LO:DY:a	!	!LO:DY:a	!	!	!
8AAAL	f	16ELL]	f f	16c#LL	f	2a	.	I\\
.	.	16AA	.	16c#	.	.	.	.
8AA	.	16BB	.	16d	.	.	.	.
.	.	16C#JJ	.	16eJJ	.	.	.	.
8AA	.	16DLL	.	16f#LL	.	.	.	.
.	.	16E	.	16g#	.	.	.	.
8AAJ	.	16F#	.	16a	.	.	.	.
.	.	16G#JJ	.	16bJJ	.	.	.	.
8FF#L	f	16ALL	f	16cc#LL	f	2cc#	f	V.ii
.	.	(16A	.	(16c#	.	.	.	.
8F#	.	16G#	.	16B	.	.	.	.
.	.	16AJJ	.	16c#JJ	.	.	.	.
8F#	.	16BLL	.	16dLL	.	.	.	.
.	.	16A	.	16c#	.	.	.	.
8F#J	.	16G#	.	16B	.	.	.	.
.	.	16AJJ)	.	16c#JJ)	.	.	.	.
=91	=91	=91	=91	=91	=91	=91	=91	=91
8BBL	f	16r	f	16r	f	2b	f	V(64)
.	.	(16G#LL	.	(16BLL	.	.	.	.
8B	.	16F#	.	16A	.	.	.	.
.	.	16G#JJ	.	16BJJ	.	.	.	.
8B	.	16ALL	.	16c#LL	.	.	.	.
.	.	16G#	.	16B	.	.	.	.
8BJ	.	16F#	.	16A	.	.	.	.
.	.	16G#JJ)	.	16BJJ)	.	.	.	.
!	!	!	!LO:DY:a	!	!	!	!	!
8BBBL	f	16r	f f	16r	.	2dd#X	f	V7
.	.	(16F#LL	.	(16d#XLL	.	.	.	.
8BB	.	16A	.	16f#	.	.	.	.
.	.	16F#JJ	.	16d#JJ	.	.	.	.
8BB	.	16ALL	.	16f#LL	.	.	.	.
.	.	16F#	.	16d#	.	.	.	.
8BBJ	.	16A	.	16f#	.	.	.	.
.	.	16F#JJ)	.	16d#JJ)	.	.	.	.
=92	=92	=92	=92	=92	=92	=92	=92	=92
8EE	p	8G#	p	8e	p	8eeL	p	I\\
8r	.	8r	.	8r	.	8r	.	.
4r	.	4r	.	4r	.	8ff##XJ	.	.
.	.	.	.	.	.	8r	.	.
4r	.	4r	.	4r	.	[2gg#	.	V65/vi
8B#X	.	8d#X	.	8ff#	.	.	.	.
8r	.	8r	.	8r	.	.	.	.
=93	=93	=93	=93	=93	=93	=93	=93	=93
(4c#	.	(4e	.	(4ee	.	4gg#]	.	vi
4B	.	4d	.	4ee#X	.	(4gg#	.	#viio43/ii
4A	.	4c#	.	4ff#	.	4aaT	.	ii6
8G#L	.	8BL	.	8gg#L	.	8bbL	.	viio6/ii
8F#J)	.	8AJ)	.	8aaJ)	.	8ccc#J)	.	ii
=94	=94	=94	=94	=94	=94	=94	=94	=94
[1B	.	1e	.	(16gg#LL	.	[2bb	.	V(64)
.	.	.	.	16b	.	.	.	.
.	.	.	.	16cc#	.	.	.	.
.	.	.	.	16dd#XJJ	.	.	.	.
.	.	.	.	16eeLL	.	.	.	.
.	.	.	.	16dd#	.	.	.	.
.	.	.	.	16ee	.	.	.	.
.	.	.	.	16ff#JJ)	.	.	.	.
.	.	.	.	(4gg#	.	(8bbL]	.	.
.	.	.	.	.	.	16aaL	.	.
.	.	.	.	.	.	16gg#JJ	.	.
.	.	.	.	4g#)	.	16ff#LL	.	.
.	.	.	.	.	.	16ee	.	.
.	.	.	.	.	.	16dd#X	.	.
.	.	.	.	.	.	16eeJJ)	.	.
=95	=95	=95	=95	=95	=95	=95	=95	=95
1B]	.	[2f#	.	2.a	.	(16dd#XLL	.	V7
.	.	.	.	.	.	16ff#	.	.
.	.	.	.	.	.	16aa	.	.
.	.	.	.	.	.	16ff#JJ	.	.
.	.	.	.	.	.	16dd#LL	.	.
.	.	.	.	.	.	16b	.	.
.	.	.	.	.	.	16a	.	.
.	.	.	.	.	.	16f#JJ	.	.
.	.	4f#_	.	.	.	16d#XLL	.	.
.	.	.	.	.	.	16f#	.	.
.	.	.	.	.	.	16a	.	.
.	.	.	.	.	.	16f#JJ	.	.
.	.	8f#L]	.	((4F# 4d#X	.	16d#LL	.	.
.	.	.	.	.	.	16B	.	.
.	.	16g#L	.	.	.	16A	.	.
.	.	16aJJ	.	.	.	16F#JJ)	.	.
=96	=96	=96	=96	=96	=96	=96	=96	=96
[1BB	.	[2b	.	2.G#)) 2.e	.	(16G#LL	.	V(64)
.	.	.	.	.	.	16B	.	.
.	.	.	.	.	.	16c#	.	.
.	.	.	.	.	.	16d#XJJ	.	.
.	.	.	.	.	.	16eLL	.	.
.	.	.	.	.	.	16d#	.	.
.	.	.	.	.	.	16e	.	.
.	.	.	.	.	.	16f#JJ)	.	.
.	.	(8bL]	.	.	.	(4g#	.	.
.	.	16aL	.	.	.	.	.	.
.	.	16g#JJ)	.	.	.	.	.	.
.	.	(16f#LL	.	(4E	.	4G#)	.	.
.	.	16e	.	.	.	.	.	.
.	.	16d#X	.	.	.	.	.	.
.	.	16eJJ)	.	.	.	.	.	.
=97	=97	=97	=97	=97	=97	=97	=97	=97
1BB]	.	(16d#XLL	.	2.F#)	.	2.A	.	V7
.	.	16f#	.	.	.	.	.	.
.	.	16a	.	.	.	.	.	.
.	.	16f#JJ	.	.	.	.	.	.
.	.	16d#LL	.	.	.	.	.	.
.	.	16B	.	.	.	.	.	.
.	.	16A	.	.	.	.	.	.
.	.	16F#JJ	.	.	.	.	.	.
.	.	16D#XLL	.	.	.	.	.	.
.	.	16F#	.	.	.	.	.	.
.	.	16A	.	.	.	.	.	.
.	.	16F#JJ	.	.	.	.	.	.
.	.	16D#LL	.	4d#X	.	4ff#	.	.
.	.	16F#	.	.	.	.	.	.
.	.	16B	.	.	.	.	.	.
.	.	16AJJ)	.	.	.	.	.	.
=98	=98	=98	=98	=98	=98	=98	=98	=98
!LO:TX:b:i:t=cresc.	!	!LO:TX:b:i:t=cresc.	!	!LO:TX:b:i:t=cresc.	!	!LO:TX:a:i:t=cresc.	!	!
[2B	.	(16G#LL	.	[2e	.	[2gg#	.	V(64)
.	.	16BB	.	.	.	.	.	.
.	.	16C#	.	.	.	.	.	.
.	.	16D#XJJ	.	.	.	.	.	.
.	.	16ELL	.	.	.	.	.	.
.	.	16D#	.	.	.	.	.	.
.	.	16E	.	.	.	.	.	.
.	.	16F#JJ	.	.	.	.	.	.
8BL]	.	8G#L)	.	8eL]	.	8gg#L]	.	.
(16AL	.	8BB	.	8f#'	.	8aa'	.	.
16G#JJ	.	.	.	.	.	.	.	.
16F#LL	.	8BB	.	8g#'	.	8bb'	.	.
16E	.	.	.	.	.	.	.	.
16D#X	.	8BBJ	.	8a'J	.	8ccc#'J	.	.
16EJJ)	.	.	.	.	.	.	.	.
=99	=99	=99	=99	=99	=99	=99	=99	=99
(16D#XLL	.	8BB	.	1aT	.	1ff#T	.	V65
16F#	.	.	.	.	.	.	.	.
16A	.	8r	.	.	.	.	.	.
16F#JJ	.	.	.	.	.	.	.	.
16D#LL	.	2.d#Xt	.	.	.	.	.	.
16BB	.	.	.	.	.	.	.	.
16AA	.	.	.	.	.	.	.	.
16FF#JJ	.	.	.	.	.	.	.	.
16DD#XLL	.	.	.	.	.	.	.	.
16FF#	.	.	.	.	.	.	.	.
16AA	.	.	.	.	.	.	.	.
16FF#JJ	.	.	.	.	.	.	.	.
16DD#LL	.	.	.	.	.	.	.	.
16FF#	.	.	.	.	.	.	.	.
16DD#	.	.	.	.	.	.	.	.
16BBBJJ)	.	.	.	.	.	.	.	.
=100	=100	=100	=100	=100	=100	=100	=100	=100
(16EELL	f	4e	f	4g#	f	4ee	f	I\\
16DD#X	.	.	.	.	.	.	.	.
16EE	.	.	.	.	.	.	.	.
16CC#JJ)	.	.	.	.	.	.	.	.
8BBB'L	.	4r	.	4r	.	4r	.	V
8CC#'J	.	.	.	.	.	.	.	.
8DD#'L	.	2r	.	2r	.	2r	.	.
8EE'	.	.	.	.	.	.	.	.
8FF#'	.	.	.	.	.	.	.	.
8GG#'J	.	.	.	.	.	.	.	.
=101	=101	=101	=101	=101	=101	=101	=101	=101
8EE'L	.	(16ELL	.	1r	.	1r	.	V2
.	.	16D#X	.	.	.	.	.	.
8FF#'	.	16E	.	.	.	.	.	.
.	.	16C#JJ)	.	.	.	.	.	.
8GG#'	.	8BB'L	.	.	.	.	.	.
8AA'J	.	8C#'J	.	.	.	.	.	.
8FF#'L	.	8D#'L	.	.	.	.	.	.
8GG#'	.	8E'	.	.	.	.	.	.
8AA'	.	8F#'	.	.	.	.	.	.
8BB'J	.	8G#'J	.	.	.	.	.	.
=102	=102	=102	=102	=102	=102	=102	=102	=102
8GG#'L	.	8E'L	.	2r	.	(16eLL	f	I6
.	.	.	.	.	.	16d#X	.	.
8AA'	.	8F#'	.	.	.	16e	.	ii65
.	.	.	.	.	.	16c#JJ)	.	.
8BB'	.	8G#'	.	.	.	8B'L	.	I64
8AA'J	.	8F#'J	.	.	.	8c#'J	.	ii6
8FF#'L	.	8A'L	.	8B'L	.	8d#'L	.	V43
8GG#'	.	8G#'	.	8B'	.	8e'	.	I6
!	!LO:DY:a	!	!LO:DY:a	!	!	!	!	!
8DD#X'	sf sf	8BB'	sf	8A'	.	8f#'	sf	V65
8EE'J	.	8BB'J	.	8G#'J	.	8g#'J	.	I
=103	=103	=103	=103	=103	=103	=103	=103	=103
8BB'L	.	8G#'L	.	8c#'L	.	8e#X'L	.	V2/ii
8AA'	.	8F#'	.	8c#'	.	8f#'	.	ii6
!	!LO:DY:a	!	!LO:DY:a	!	!	!	!	!
8EE#X'	sf sf	8C#'	sf	8B'	.	8g#'	sf	V65/ii
8FF#'J	.	8C#'J	.	8A'J	.	8a'J	.	ii
8GG#'L	.	8D'L	.	8e'L	.	8b'L	.	V65/IV
8AA'	.	8C#'	.	8e'	.	8cc#'	.	IV
!	!LO:DY:a	!	!	!	!	!	!	!
8FF#'	sf sf	8BB'	.	8a'	sf	8dd#X'	sf	V43
8GG#'J	.	8BB'J	.	8g#'J	.	8ee'J	.	I6
=104	=104	=104	=104	=104	=104	=104	=104	=104
8DD#X'L	.	8B'L	.	8a'L	.	8ff#'L	.	V65
8EE'	.	8B'	.	8g#'	.	8gg#'	.	I
8CC#'	.	8A'	.	8ee'	.	8aa'	.	IV6
8BBB'J	.	8G#'J	.	8ee'J	.	8bb'J	.	I64
8AAA	.	8A 8c#	.	8f# 8ee	.	8ccc#	.	ii65
8r	.	8r	.	8rg	.	8r	.	.
8BBB	.	8A 8B	.	8f# 8dd#X	.	8ddd#X	.	V7
8r	.	8r	.	8r	.	8r	.	.
=105	=105	=105	=105	=105	=105	=105	=105	=105
4EE	.	4G# 4B	.	4g# 4ee	.	(16eeeLL	.	I\\
.	.	.	.	.	.	16ddd#X	.	.
.	.	.	.	.	.	16eee	.	I[I
.	.	.	.	.	.	16ccc#JJ)	.	.
8r	.	8r	.	8r	.	8bb'L	.	.
8EE'	.	8A'	.	8d#X'	.	[8bbJ	.	V2
4EE'	.	4G#'	.	4e'	.	(16bbLL]	.	I6
.	.	.	.	.	.	16aa#X	.	.
.	.	.	.	.	.	16bb	.	.
.	.	.	.	.	.	16gg#JJ)	.	.
8r	.	8r	.	8r	.	8ee'L	.	.
8EE	.	8A	.	8c#	.	[8eeJ	.	IV
=106	=106	=106	=106	=106	=106	=106	=106	=106
4EE	.	4G#	.	4B	.	(16eeLL]	.	I
.	.	.	.	.	.	16dd#X	.	.
.	.	.	.	.	.	16ee	.	.
.	.	.	.	.	.	16cc#JJ)	.	.
8r	.	8r	.	8r	.	8b'L	.	.
8EE	.	8D#X	.	8A	.	[8bJ	.	V7
4EE	.	4E	.	4G#	.	(16bLL]	.	I
.	.	.	.	.	.	16a#X	.	.
.	.	.	.	.	.	16b	.	.
.	.	.	.	.	.	16g#JJ)	.	.
8r	.	8r	.	8r	.	8eL	.	.
8EE	.	8C#	.	8A	.	8eJ	.	IV6]
=107	=107	=107	=107	=107	=107	=107	=107	=107
8EE	.	8BB	.	8G#	.	8d	.	I.V7
8r	.	8r	.	8r	.	8r	.	.
!	!	!	!LO:DY:a	!	!	!	!	!
4r	.	4r	p	8E'	.	4r	.	@none
.	.	.	.	8r	.	.	.	.
2r	.	4r	.	[2FX	.	2r	.	.
.	.	8c#'	p	.	.	.	.	.
.	.	8r	.	.	.	.	.	.
=108	=108	=108	=108	=108	=108	=108	=108	=108
1r	.	2.d	.	4F]	.	1r	.	.
.	.	.	.	8E'	.	.	.	.
.	.	.	.	8r	.	.	.	.
.	.	.	.	[2FX	.	.	.	.
.	.	8c#'	.	.	.	.	.	.
.	.	8r	.	.	.	.	.	.
=109	=109	=109	=109	=109	=109	=109	=109	=109
1r	.	[1d	.	4F]	.	2r	.	.
.	.	.	.	8FX'	.	.	.	.
.	.	.	.	8r	.	.	.	.
.	.	.	.	8F#'	.	4r	.	.
.	.	.	.	8r	.	.	.	.
.	.	.	.	8F##X'	.	8A#X'	p	.
.	.	.	.	8r	.	8r	.	.
=110	=110	=110	=110	=110	=110	=110	=110	=110
2r	.	2.d]	.	8G#'	.	8B'	.	viio64
.	.	.	.	8r	.	8r	.	.
.	.	.	.	8F##X'	.	8A#X'	.	.
.	.	.	.	8r	.	8r	.	.
4r	.	.	.	8G#'	.	8B'	.	.
.	.	.	.	8r	.	8r	.	.
8AA'	p	8E'	.	8A'	.	8c#'	.	I
8r	.	8r	.	8r	.	8r	.	.
=111:|!	=111:|!	=111:|!	=111:|!	=111:|!	=111:|!	=111:|!	=111:|!	=111:|!
8EE	.	8BB	.	8G#	.	8d	.	V7
!	!	!	!LO:DY:a	!	!	!	!	!
8r	.	8r	p	8r	.	8r	.	@none
4r	.	4r	.	8E'	.	4r	.	.
.	.	.	.	8r	.	.	.	.
2r	.	4r	.	[2FX	.	2r	.	.
.	.	8c#'	p	.	.	.	.	.
.	.	8r	.	.	.	.	.	.
=112	=112	=112	=112	=112	=112	=112	=112	=112
1r	.	2.d	.	4F]	.	1r	.	.
.	.	.	.	8E'	.	.	.	.
.	.	.	.	8r	.	.	.	.
.	.	.	.	[2FX	.	.	.	.
.	.	8c#'	.	.	.	.	.	.
.	.	8r	.	.	.	.	.	.
=113	=113	=113	=113	=113	=113	=113	=113	=113
1r	.	[1d	.	4F]	.	2r	.	.
.	.	.	.	8FX'	.	.	.	.
.	.	.	.	8r	.	.	.	.
.	.	.	.	[2F#	.	4r	.	ii6(#7)
.	.	.	.	.	.	8a#X'	p	.
.	.	.	.	.	.	8r	.	.
=114	=114	=114	=114	=114	=114	=114	=114	=114
2r	.	2.d]	.	4F#]	.	2.b	.	.bIII.I64(7#4)
.	.	.	.	8F#'	.	.	.	.
.	.	.	.	8r	.	.	.	.
!	!	!	!	!LO:TX:b:i:t=cresc.	!	!	!	!
4r	.	.	.	[2GX	.	.	.	.
!LO:TX:b:i:t=cresc.	!	!LO:TX:b:i:t=cresc.	!	!	!	!LO:TX:b:i:t=cresc.	!	!
8GGX'	.	8d#X	.	.	.	8b	.	.
8r	.	8r	.	.	.	8r	.	.
=115	=115	=115	=115	=115	=115	=115	=115	=115
8GGX'	.	8e	.	8G]	.	8ccX	.	I64
8r	.	8r	.	8r	.	8r	.	.
8E'	.	8A#X	.	8gX	.	8cc#	.	#vio43
8r	.	8r	.	8r	.	8r	.	.
8D'	.	8B	.	8fX	.	8dd	.	iiio64
8r	.	8r	.	8r	.	8r	.	.
8CX'	.	8cX	.	8e	.	8ee	.	I
8r	.	8r	.	8r	.	8r	.	.
=116	=116	=116	=116	=116	=116	=116	=116	=116
2.BB	p	2.d	p	2.gX	p	2.ffX	p	V65
4r	.	4r	.	4r	.	8bb'L	.	.
.	.	.	.	.	.	16r	.	.
.	.	.	.	.	.	16cccX'Jk	.	.
=117	=117	=117	=117	=117	=117	=117	=117	=117
1r	.	1r	.	1r	.	(8eeeL	.	.
.	.	.	.	.	.	8dddJ)	.	.
.	.	.	.	.	.	8bb'L	.	.
.	.	.	.	.	.	16r	.	.
.	.	.	.	.	.	16cccX'Jk	.	.
.	.	.	.	.	.	(8cccL	.	.
.	.	.	.	.	.	8bbJ)	.	.
.	.	.	.	.	.	8ggX'L	.	.
.	.	.	.	.	.	16r	.	.
.	.	.	.	.	.	16aa'Jk	.	.
=118	=118	=118	=118	=118	=118	=118	=118	=118
1r	.	1r	.	1r	.	(8aaL	.	.
.	.	.	.	.	.	8ggXJ)	.	.
.	.	.	.	.	.	8ee'L	.	.
.	.	.	.	.	.	16r	.	.
.	.	.	.	.	.	16ffX'Jk	.	.
.	.	.	.	.	.	(8ff'L	.	.
.	.	.	.	.	.	8ee'	.	.
.	.	.	.	.	.	8dd'	.	.
.	.	.	.	.	.	8ccX'J)	.	.
=119	=119	=119	=119	=119	=119	=119	=119	=119
1r	.	1r	.	1r	.	(8b'L	.	.
.	.	.	.	.	.	8a'	.	.
.	.	.	.	.	.	8gX'	.	.
.	.	.	.	.	.	8fX'J)	.	.
.	.	.	.	.	.	(8e'L	.	.
.	.	.	.	.	.	8d'	.	.
.	.	.	.	.	.	8cX'	.	.
.	.	.	.	.	.	8B'J)	.	.
=120	=120	=120	=120	=120	=120	=120	=120	=120
1r	.	1r	.	1r	.	(8A'L	.	.
.	.	.	.	.	.	8GX'	.	.
.	.	.	.	.	.	8F#'	.	.
.	.	.	.	.	.	8G'J)	.	.
.	.	.	.	.	.	(8B'L	.	.
.	.	.	.	.	.	8d'	.	.
.	.	.	.	.	.	8gX'	.	.
.	.	.	.	.	.	8b'J)	.	.
=121	=121	=121	=121	=121	=121	=121	=121	=121
1r	.	1r	.	1r	.	(8dd'L	.	.
.	.	.	.	.	.	8ee'	.	.
.	.	.	.	.	.	8ffX'	.	.
.	.	.	.	.	.	8dd'J)	.	.
.	.	.	.	.	.	(8b'L	.	.
.	.	.	.	.	.	8gX'	.	.
.	.	.	.	.	.	8a'	.	.
.	.	.	.	.	.	8d'J)	.	.
=122	=122	=122	=122	=122	=122	=122	=122	=122
2r	.	4r	.	4r	.	(2fX	p	viio
.	.	(4B	.	(4d	.	.	.	.
4r	.	8cX)	.	8GX)	.	4e)	.	I
.	.	8r	.	8r	.	.	.	.
8CX'	.	8E'	.	8cX'	.	4r	.	.
8r	.	8r	.	8r	.	.	.	.
=123	=123	=123	=123	=123	=123	=123	=123	=123
2.BB	.	2.FX	.	2.d	.	4r	.	viio
.	.	.	.	.	.	8dd	.	.
.	.	.	.	.	.	8r	.	.
.	.	.	.	.	.	[2gX	.	I
8CX'	.	8E'	.	8cX'	.	.	.	.
8r	.	8r	.	8r	.	.	.	.
=124	=124	=124	=124	=124	=124	=124	=124	=124
2.BB	.	2.FX	.	2.d	.	4g]	.	V65
.	.	.	.	.	.	8dd	.	.
.	.	.	.	.	.	8r	.	.
.	.	.	.	.	.	[2gX	.	.
8D'L	.	8F'L	.	8B'L	.	.	.	.
16r	.	16r	.	16r	.	.	.	.
16CX'Jk	.	16E'Jk	.	16cX'Jk	.	.	.	.
=125	=125	=125	=125	=125	=125	=125	=125	=125
(8AA#XL	.	(8C#L	.	(8eL	.	2.g]	.	vi7
8BBJ)	.	8DJ)	.	8dJ)	.	.	.	.
8BB'L	.	8D'L	.	8B'L	.	.	.	.
16r	.	16r	.	16r	.	.	.	.
16AA'Jk	.	16CX'Jk	.	16cX'Jk	.	.	.	.
(8FF#L	.	(8AAL	.	(8cL	.	.	.	.
8GGXJ)	.	8BBJ)	.	8BJ)	.	.	.	.
4r	.	4r	.	4r	.	8gX'L	.	V
.	.	.	.	.	.	16r	.	.
.	.	.	.	.	.	16a'Jk	.	.
=126	=126	=126	=126	=126	=126	=126	=126	=126
2r	.	2r	.	2r	.	(8aL	.	.
.	.	.	.	.	.	8gXJ)	.	.
.	.	.	.	.	.	8e'L	.	I64
.	.	.	.	.	.	16r	.	.
.	.	.	.	.	.	16fX'Jk	.	.
4r	.	4r	.	4r	.	(8fL	.	.
.	.	.	.	.	.	8eJ)	.	.
8d'L	.	8fX'L	.	8b'L	.	[8.g	.	V43
16r	.	16r	.	16r	.	.	.	.
16cX'Jk	.	16e'Jk	.	16ccX'Jk	.	16g_	.	I
=127	=127	=127	=127	=127	=127	=127	=127	=127
(8A#XL	.	(8c#L	.	(8eeL	.	2.g]	.	#ivo7(+9)
8BJ)	.	8dJ)	.	8ddJ)	.	.	.	.
8B'L	.	8d'L	.	8b'L	.	.	.	.
16r	.	16r	.	16r	.	.	.	.
16A'Jk	.	16cX'Jk	.	16ccX'Jk	.	.	.	.
(8F#L	.	(8AL	.	(8ccL	.	.	.	.
8GXJ)	.	8BJ)	.	8bJ)	.	.	.	.
4r	.	4r	.	4r	.	8ggX'L	.	V
.	.	.	.	.	.	16r	.	.
.	.	.	.	.	.	16aa'Jk	.	.
=128	=128	=128	=128	=128	=128	=128	=128	=128
1r	.	2r	.	4r	.	(8aaL	.	I64
.	.	.	.	.	.	8ggXJ)	.	.
.	.	.	.	8gX'L	.	8ee'L	.	.
.	.	.	.	16r	.	16r	.	.
.	.	.	.	16a'Jk	.	16ffX'Jk	.	.
.	.	4r	.	(8aL	.	(8ffL	.	.
.	.	.	.	8gJ)	.	8eeJ)	.	.
.	.	8gX'L	.	8e'L	.	8cc#'L	.	#viio64/ii
.	.	16r	.	16r	.	16r	.	.
.	.	16a'Jk	.	16fX'Jk	.	16dd'Jk	.	ii6
=129	=129	=129	=129	=129	=129	=129	=129	=129
4r	.	(8aL	.	(8fXL	.	(8ddL	.	.
.	.	8gXJ)	.	8eJ)	.	8cc#J)	.	#viio64/ii
8.AAL	.	4r	.	4r	.	4r	.	iv.V7
16GG#Jk	.	.	.	.	.	.	.	.
(8GG#L	.	4r	.	4r	.	4r	.	.
8AAJ)	.	.	.	.	.	.	.	.
4r	.	8g'L	.	8e'L	.	8cc#'L	.	.
.	.	16r	.	16r	.	16r	.	.
.	.	16a'Jk	.	16f'Jk	.	16dd'Jk	.	.
=130	=130	=130	=130	=130	=130	=130	=130	=130
4r	.	(8aL	.	(8fXL	.	(8ddL	.	i6
.	.	[8gXJ)	.	[8eJ)	.	[8cc#J)	.	.
8AA'L	pp	2.g_	pp	2.e_	pp	2.cc#_	pp	V7
16r	.	.	.	.	.	.	.	.
16GG#'Jk	.	.	.	.	.	.	.	.
(8GG#L	.	.	.	.	.	.	.	.
8AAJ)	.	.	.	.	.	.	.	.
8AA'L	.	.	.	.	.	.	.	.
16r	.	.	.	.	.	.	.	.
16GG#'Jk	.	.	.	.	.	.	.	.
=131	=131	=131	=131	=131	=131	=131	=131	=131
(8GG#L	.	2.g]	.	2.e]	.	1cc#_	.	.
8AAJ)	.	.	.	.	.	.	.	.
8AA'L	.	.	.	.	.	.	.	.
16r	.	.	.	.	.	.	.	.
16GG#'Jk	.	.	.	.	.	.	.	.
(8GG#L	.	.	.	.	.	.	.	.
8AAJ)	.	.	.	.	.	.	.	.
8AA'L	.	[4e	.	4gX	.	.	.	.
16r	.	.	.	.	.	.	.	.
16GG#'Jk	.	.	.	.	.	.	.	.
=132	=132	=132	=132	=132	=132	=132	=132	=132
8GG#L	.	2.e]	.	2.g#	.	2.cc#]	.	iii.V[i6
8GG#	.	.	.	.	.	.	.	.
8GG#	.	.	.	.	.	.	.	.
8GG#J	.	.	.	.	.	.	.	.
8GG#L	.	.	.	.	.	.	.	.
8GG#	.	.	.	.	.	.	.	.
8GG#	.	8e'	.	8g#'	.	8cc#'	.	.
8GG#J	.	8r	.	8r	.	8r	.	.
=133	=133	=133	=133	=133	=133	=133	=133	=133
8GG#L	.	(2d#X	.	(2f#	.	(2b#X	.	#viio6
8GG#	.	.	.	.	.	.	.	.
8GG#	.	.	.	.	.	.	.	.
8GG#J	.	.	.	.	.	.	.	.
8GG#L	.	2c#	.	2e	.	2cc#	.	i
8GG#	.	.	.	.	.	.	.	.
8GG#	.	.	.	.	.	.	.	.
8GG#J	.	.	.	.	.	.	.	.
=134	=134	=134	=134	=134	=134	=134	=134	=134
8GG#L	.	2B#X	.	2d#X	.	2f#	.	#viio
8GG#	.	.	.	.	.	.	.	.
8GG#	.	.	.	.	.	.	.	.
8GG#J	.	.	.	.	.	.	.	.
8GG#L	.	2G#	.	2c#	.	2e	.	i64
8GG#	.	.	.	.	.	.	.	.
8GG#	.	.	.	.	.	.	.	.
8GG#J	.	.	.	.	.	.	.	.
=135	=135	=135	=135	=135	=135	=135	=135	=135
8GG#L	.	2F#	.	2A	.	2d#X	.	iio6
8GG#	.	.	.	.	.	.	.	.
8GG#	.	.	.	.	.	.	.	.
8GG#J	.	.	.	.	.	.	.	.
8GG#L	.	2E)	.	2F##X)	.	2c#)	.	#viio2/V
8GG#	.	.	.	.	.	.	.	.
8GG#	.	.	.	.	.	.	.	.
8GG#J	.	.	.	.	.	.	.	.
=136	=136	=136	=136	=136	=136	=136	=136	=136
!LO:TX:b:i:t=cresc.	!	!LO:TX:b:i:t=cresc.	!	!LO:TX:b:i:t=cresc.	!	!LO:TX:b:i:t=cresc.	!	!
8GG#L	.	1D#X	.	[1G#	.	1B#X	.	V64
8GG#	.	.	.	.	.	.	.	.
8GG#	.	.	.	.	.	.	.	.
8GG#J	.	.	.	.	.	.	.	.
8GG#L	.	.	.	.	.	.	.	.
8GG#	.	.	.	.	.	.	.	.
8GG#	.	.	.	.	.	.	.	.
8GG#J	.	.	.	.	.	.	.	.
=137	=137	=137	=137	=137	=137	=137	=137	=137
8GG#L	.	1E	.	2G#]	.	1c#	.	IV.V2
8GG#	.	.	.	.	.	.	.	.
8GG#	.	.	.	.	.	.	.	.
8GG#J	.	.	.	.	.	.	.	.
8GGXL	.	.	.	2A	.	.	.	.
8GG	.	.	.	.	.	.	.	.
8GG	.	.	.	.	.	.	.	.
8GGJ	.	.	.	.	.	.	.	.
=138	=138	=138	=138	=138	=138	=138	=138	=138
8FF#L	f	16F#LL	f	16dLL	f	2.d	f	I6
.	.	16AA	.	16A	.	.	.	.
8FF#	.	16AA	.	16A	.	.	.	.
.	.	16AAJJ	.	16AJJ	.	.	.	.
8FF#	.	16AALL	.	16ALL	.	.	.	.
.	.	16AA	.	16A	.	.	.	.
8FF#J	.	16AA	.	16A	.	.	.	.
.	.	16AAJJ	.	16AJJ	.	.	.	.
8FF#L	f	16AALL	.	16ALL	.	.	.	.
.	.	16AA	.	16A	.	.	.	.
8FF#	.	16AA	.	16A	.	.	.	.
.	.	16AAJJ	.	16AJJ	.	.	.	.
8FF#	.	16AALL	.	16ALL	.	(16dLL	.	.
.	.	16AA	.	16A	.	16e	.	.
8FF#J	.	16AA	.	16A	.	16f#	.	.
.	.	16AAJJ	.	16AJJ	.	16dJJ)	.	.
=139	=139	=139	=139	=139	=139	=139	=139	=139
8EEL	.	16AALL	.	16GXLL 16c#	.	(16gXLL	.	V43
.	.	16AA	.	16G 16c#	.	16f#	.	.
8EE	.	16AA	.	16G 16c#	.	16e	.	.
.	.	16AAJJ	.	16GJJ 16c#	.	16dJJ	.	.
8EE	.	16AALL	.	16GLL 16c#	.	16c#LL	.	.
.	.	16AA	.	16G 16c#	.	16d	.	.
8EEJ	.	16AA	.	16G 16c#	.	16e	.	.
.	.	16AAJJ	.	16GJJ 16c#	.	16f#JJ)	.	.
8EEL	.	16ALL	.	16GLL 16c#	.	(16gLL	.	.
.	.	16A	.	16G 16c#	.	16f#	.	.
8EE	.	16A	.	16G 16c#	.	16e	.	.
.	.	16AJJ	.	16GJJ 16c#	.	16f#JJ	.	.
8EE	.	16ALL	.	16GLL 16c#	.	16gLL	.	.
.	.	16A	.	16G 16c#	.	16a	.	.
8EEJ	.	16A	.	16G 16c#	.	16b	.	.
.	.	16AJJ	.	16GJJ 16c#	.	16cc#JJ)	.	.
=140	=140	=140	=140	=140	=140	=140	=140	=140
!	!	!	!LO:DY:a	!	!	!	!	!
4DD	p	4A	p p	4F# 4d	.	(16ddLL	p	I
.	.	.	.	.	.	16ff#	.	.
.	.	.	.	.	.	16ee	.	.
.	.	.	.	.	.	16ggXJJ	.	.
4r	.	4r	.	4r	.	16ff#LL	.	.
.	.	.	.	.	.	16aa	.	.
.	.	.	.	.	.	16gg	.	.
.	.	.	.	.	.	16bbJJ	.	.
8r	.	8r	.	8r	.	2aa)	.	I6
8F#L	.	8AL	.	8dL	.	.	.	.
8F#	.	8A	.	8d	.	.	.	.
8F#J	.	8AJ	.	8dJ	.	.	.	.
=141	=141	=141	=141	=141	=141	=141	=141	=141
4E	.	4A	.	4c#	.	(16ggXLL	.	V43
.	.	.	.	.	.	16bb	.	.
.	.	.	.	.	.	16aa	.	.
.	.	.	.	.	.	16ff#JJ	.	.
4r	.	4r	.	4r	.	16eeLL	.	.
.	.	.	.	.	.	16gg	.	.
.	.	.	.	.	.	16ff#	.	.
.	.	.	.	.	.	16ddJJ	.	.
8r	.	8r	.	8r	.	16cc#LL	.	.
.	.	.	.	.	.	16ee	.	.
8AAL	.	8GXL	.	8EL	.	16dd	.	V7
.	.	.	.	.	.	16bJJ	.	.
8AA	.	(8G	.	(8E	.	8aL	.	.
8AAJ	.	8EJ)	.	8GXJ)	.	16bL	.	.
.	.	.	.	.	.	16cc#JJ)	.	.
=142	=142	=142	=142	=142	=142	=142	=142	=142
4DD	.	(16DLL	.	4F#	.	4dd	.	I
.	.	16F#	.	.	.	.	.	.
.	.	16E	.	.	.	.	.	.
.	.	16GXJJ	.	.	.	.	.	.
4r	.	16F#LL	.	4r	.	4r	.	.
.	.	16A	.	.	.	.	.	.
.	.	16G	.	.	.	.	.	.
.	.	16BJJ)	.	.	.	.	.	.
2r	.	2A	.	(16BLL	.	2r	.	V2/ii
.	.	.	.	16d#X	.	.	.	.
.	.	.	.	16c#	.	.	.	.
.	.	.	.	16eJJ	.	.	.	.
.	.	.	.	16d#LL	.	.	.	.
.	.	.	.	16f#	.	.	.	.
.	.	.	.	16d#	.	.	.	.
.	.	.	.	16BJJ)	.	.	.	.
=143	=143	=143	=143	=143	=143	=143	=143	=143
1r	.	(16GXLL	.	(16eLL	.	4r	.	ii6
.	.	16B	.	16gX	.	.	.	.
.	.	16A	.	16f#	.	.	.	.
.	.	16F#JJ	.	16aJJ	.	.	.	.
.	.	16ELL	.	16gLL	.	(8eeL	.	ii
.	.	16G	.	16b	.	.	.	.
.	.	16F#	.	16a	.	8ff#J	.	.
.	.	16DJJ	.	16f#JJ	.	.	.	.
.	.	16C#LL	.	16eLL	.	8ggXL	.	V65
.	.	16E	.	16g	.	.	.	.
.	.	16D	.	16f#	.	8gg#	.	#viio6/V
.	.	16BBJJ	.	16dJJ	.	.	.	.
.	.	8AAL	.	8c#L	.	8aa	.	V7
.	.	16BBL	.	16dL	.	8ggXJ	.	.
.	.	16C#JJ)	.	16eJJ)	.	.	.	.
=144	=144	=144	=144	=144	=144	=144	=144	=144
!LO:TX:a:i:t=cresc.	!	!	!	!	!	!	!	!
(16DDLL	.	8D	.	8f#	.	8ff#)	.	I
16FF#	.	.	.	.	.	.	.	.
16EE	.	8r	.	8r	.	8r	.	.
16GGXJJ	.	.	.	.	.	.	.	.
16FF#LL	.	4r	.	4r	.	4r	.	.
16AA	.	.	.	.	.	.	.	.
16GG	.	.	.	.	.	.	.	.
16BBJJ)	.	.	.	.	.	.	.	.
8AAL	.	2r	.	2r	.	2r	.	V
8AA	.	.	.	.	.	.	.	.
8AA	.	.	.	.	.	.	.	.
8AAJ	.	.	.	.	.	.	.	.
=145	=145	=145	=145	=145	=145	=145	=145	=145
!	!LO:DY:a	!	!	!	!	!	!	!
[1AA	fp p	2r	.	2r	.	4r	.	V[V
.	.	.	.	.	.	8e#X'	p	.
.	.	.	.	.	.	8r	.	.
.	.	4r	.	4r	.	[2f#	.	#io43
!	!	!	!LO:DY:a	!	!	!	!	!
.	.	8D#X	p	8cX	.	.	.	.
.	.	8r	.	8r	.	.	.	.
=146	=146	=146	=146	=146	=146	=146	=146	=146
1AA_	.	(2E	.	(2B	.	4f#]	.	ii(4)
.	.	.	.	.	.	(4f#T	.	.
.	.	2GX)	.	2c#)	.	4a	.	V2
.	.	.	.	.	.	8gXL	.	.
.	.	.	.	.	.	8eJ)	.	.
=147	=147	=147	=147	=147	=147	=147	=147	=147
1AA_	.	(4F#	.	(2.d	.	8d	.	I6
.	.	.	.	.	.	8r	.	.
.	.	2D	.	.	.	8e#X	.	.
.	.	.	.	.	.	8r	.	.
.	.	.	.	.	.	[2f#	.	#io43
.	.	4D#X)	.	4cX)	.	.	.	.
=148	=148	=148	=148	=148	=148	=148	=148	=148
1AA]	.	(2E	.	(2B	.	4f#]	.	ii(4)
.	.	.	.	.	.	(4f#T	.	.
.	.	2GX)	.	2c#)	.	4a	.	V2]
.	.	.	.	.	.	8gXL	.	.
.	.	.	.	.	.	8eJ)	.	.
=149	=149	=149	=149	=149	=149	=149	=149	=149
!LO:TX:a:i:t=cresc.	!	!LO:TX:a:i:t=cresc.	!	!	!	!LO:TX:b:i:t=cresc.	!	!
2.D	.	8F#	.	8d	.	16f#LL	.	vi6
.	.	.	.	.	.	16B	.	.
.	.	8r	.	8r	.	16d	.	.
.	.	.	.	.	.	16f#JJ	.	.
.	.	8E#X'	.	4r	.	16bLL	.	.
.	.	.	.	.	.	16d	.	.
.	.	8r	.	.	.	16f#	.	.
.	.	.	.	.	.	16bJJ	.	.
.	.	[2F#	.	2r	.	16ddLL	.	.
.	.	.	.	.	.	16f#	.	.
.	.	.	.	.	.	16b	.	.
.	.	.	.	.	.	16ddJJ	.	.
8BB'	.	.	.	.	.	16ff#LL	.	vi
.	.	.	.	.	.	16b	.	.
8r	.	.	.	.	.	16dd	.	.
.	.	.	.	.	.	16ff#JJ	.	.
=150	=150	=150	=150	=150	=150	=150	=150	=150
!	!	!	!	!LO:TX:b:i:t=cresc.	!	!	!	!
2.AA#X	.	8F#]	.	16r	.	8ee	.	V65/vi
.	.	.	.	16cc#LL	.	.	.	.
.	.	8r	.	16a#X	.	8r	.	.
.	.	.	.	16f#JJ	.	.	.	.
.	.	8E#X'	.	16cc#LL	.	4r	.	.
.	.	.	.	16a#	.	.	.	.
.	.	8r	.	16f#	.	.	.	.
.	.	.	.	16c#JJ	.	.	.	.
.	.	[2F#	.	16f#LL	.	2r	.	.
.	.	.	.	16c#	.	.	.	.
.	.	.	.	16A#X	.	.	.	.
.	.	.	.	16c#JJ	.	.	.	.
8AA#'	.	.	.	16F#LL	.	.	.	.
.	.	.	.	16A#	.	.	.	.
8r	.	.	.	16c#	.	.	.	.
.	.	.	.	16eJJ	.	.	.	.
=151	=151	=151	=151	=151	=151	=151	=151	=151
2.BB	.	4F#]	.	4d	.	16r	.	vi
.	.	.	.	.	.	16BLL	.	.
.	.	.	.	.	.	16d	.	.
.	.	.	.	.	.	16f#JJ	.	.
.	.	8E#X'	.	4r	.	16bLL	.	.
.	.	.	.	.	.	16d	.	.
.	.	8r	.	.	.	16f#	.	.
.	.	.	.	.	.	16bJJ	.	.
.	.	[2F#	.	2r	.	16ddLL	.	.
.	.	.	.	.	.	16f#	.	.
.	.	.	.	.	.	16b	.	.
.	.	.	.	.	.	16ddJJ	.	.
8BB'	.	.	.	.	.	16ff#LL	.	.
.	.	.	.	.	.	16b	.	.
8r	.	.	.	.	.	16dd	.	.
.	.	.	.	.	.	16ff#JJ	.	.
=152	=152	=152	=152	=152	=152	=152	=152	=152
2.GG#	.	4F#]	.	16r	.	4bb	.	i.V65
.	.	.	.	16BLL	.	.	.	.
.	.	.	.	16e	.	.	.	.
.	.	.	.	16g#JJ	.	.	.	.
.	.	8D#X'	.	16bLL	.	4r	.	.
.	.	.	.	16g#	.	.	.	.
.	.	8r	.	16e	.	.	.	.
.	.	.	.	16BJJ	.	.	.	.
.	.	[2E	.	16eLL	.	2r	.	.
.	.	.	.	16B	.	.	.	.
.	.	.	.	16G#	.	.	.	.
.	.	.	.	16BJJ	.	.	.	.
8GG#'	.	.	.	16ELL	.	.	.	.
.	.	.	.	16G#	.	.	.	.
8r	.	.	.	16B	.	.	.	.
.	.	.	.	16dJJ	.	.	.	.
=153	=153	=153	=153	=153	=153	=153	=153	=153
!	!LO:DY:a	!	!LO:DY:a	!	!	!	!	!
4AA	f f	16ELL]	f	8cX	.	2r	.	i
.	.	16AA	.	.	.	.	.	.
.	.	16CX	.	8r	.	.	.	.
.	.	16EJJ	.	.	.	.	.	.
4r	.	16ALL	.	8dd#X'	.	.	.	.
.	.	16C	.	.	.	.	.	.
.	.	16E	.	8r	.	.	.	.
.	.	16AJJ	.	.	.	.	.	.
2r	.	16cXLL	.	[2ee	.	4r	.	.
.	.	16E	.	.	.	.	.	.
.	.	16A	.	.	.	.	.	.
.	.	16cJJ	.	.	.	.	.	.
.	.	16eLL	.	.	.	8a'	f	.
.	.	16A	.	.	.	.	.	.
.	.	16c	.	.	.	8r	.	.
.	.	16eJJ	.	.	.	.	.	.
=154	=154	=154	=154	=154	=154	=154	=154	=154
16r	.	8d	.	4ee]	.	2.g#	.	V7
16ELL	.	.	.	.	.	.	.	.
16G#	.	8r	.	.	.	.	.	.
16BJJ	.	.	.	.	.	.	.	.
16dLL	.	4r	.	8dd#X'	.	.	.	.
16B	.	.	.	.	.	.	.	.
16G#	.	.	.	8r	.	.	.	.
16EJJ	.	.	.	.	.	.	.	.
16DLL	.	2r	.	[2ee	.	.	.	.
16BB	.	.	.	.	.	.	.	.
16GG#	.	.	.	.	.	.	.	.
16BBJJ	.	.	.	.	.	.	.	.
16EELL	.	.	.	.	.	8g#	.	.
16GG#	.	.	.	.	.	.	.	.
16BB	.	.	.	.	.	8r	.	.
16DJJ	.	.	.	.	.	.	.	.
=155	=155	=155	=155	=155	=155	=155	=155	=155
8CX	.	4r	.	4ee]	.	4a	.	i6
8r	ff	.	.	.	.	.	.	.
!	!LO:DY:a	!	!	!	!	!	!	!
4AA'	ff	4CX'	.	4r	.	4r	.	i
[2A	.	[2cX	.	4r	.	4r	.	.
.	.	.	.	4a'	ff	4ccX'	ff	.
=156	=156	=156	=156	=156	=156	=156	=156	=156
4A]	.	4c]	.	2.aa	.	2.cccX	.	VI
4FFX'	.	4AA'	.	.	.	.	.	.
[2FX	.	[2A	.	.	.	.	.	.
.	.	.	.	4fX'	.	4a'	.	.
=157	=157	=157	=157	=157	=157	=157	=157	=157
4F]	.	4A]	.	2.ffX	.	2.aa	.	iv
4DD'	.	4AA'	.	.	.	.	.	.
[2D	.	[2FX	.	.	.	.	.	.
.	.	.	.	4d'	.	4fX'	.	.
=158	=158	=158	=158	=158	=158	=158	=158	=158
4D]	.	4F]	.	2.dd	.	2.ffX	.	I64
4BB-X'	.	4D'	.	.	.	.	.	.
[2FFX	.	[2BB-X	.	.	.	.	.	.
.	.	.	.	4b-X'	.	4dd'	.	.
=159	=159	=159	=159	=159	=159	=159	=159	=159
!LO:TX:b:i:t=dim.	!	!LO:TX:b:i:t=dim.	!	!LO:TX:b:i:t=dim.	!	!LO:TX:b:i:t=dim.	!	!
4FF]	.	4BB-]	.	2.fX	.	2.b-X	.	I6
4BB-X'	.	4D'	.	.	.	.	.	.
[2D	.	[2FX	.	.	.	.	.	.
.	.	.	.	4d'	.	4fX'	.	.
=160	=160	=160	=160	=160	=160	=160	=160	=160
4D]	.	4F]	.	2.B-X	p	2.d	p	I64
4BB-X'	p	4D'	p	.	.	.	.	.
[2FFX	.	[2BB-X	.	.	.	.	.	.
.	.	.	.	4FX'	.	4B-X'	.	.
=161	=161	=161	=161	=161	=161	=161	=161	=161
4FF]	.	4BB-]	.	2.B-X	.	2.d	.	I6
4BB-X'	.	4D'	.	.	.	.	.	.
[2D	.	[2FX	.	.	.	.	.	.
.	.	.	.	4d'	.	4fX'	.	.
=162	=162	=162	=162	=162	=162	=162	=162	=162
4D]	.	4F]	.	2.cX	.	2.e-X	.	I(94)
4CX'	.	4E-X'	.	.	.	.	.	.
[2BB-X	.	[2D	.	.	.	.	.	.
.	.	.	.	4B-X'	.	4d'	.	I
=163	=163	=163	=163	=163	=163	=163	=163	=163
4BB-]	.	4D]	.	2.A	.	2.cX	.	V2(+9)
4AA'	.	4CX'	.	.	.	.	.	.
[2E-X	.	[2GX	.	.	.	.	.	.
.	.	.	.	4e-X'	.	4gX'	.	.
=164	=164	=164	=164	=164	=164	=164	=164	=164
4E-]	.	4G]	.	2.d	.	2.fX	.	V43(6)
4D'	.	4FX'	.	.	.	.	.	.
[2CX	.	[2E-X	.	.	.	.	.	.
.	.	.	.	4cX'	.	4e-X'	.	V43
=165	=165	=165	=165	=165	=165	=165	=165	=165
4C]	.	4E-]	.	2.B-X	.	2.d	.	V65(64)
4BB-X'	.	4D'	.	.	.	.	.	.
[2AA	.	[2CX	.	.	.	.	.	.
.	.	.	.	4A'	.	4cX'	.	V65
=166	=166	=166	=166	=166	=166	=166	=166	=166
4AA]	.	4C]	.	2.G#	.	2.B	.	i.viio7
4GG#'	.	4BB'	.	.	.	.	.	.
[2D	.	[2FX	.	.	.	.	.	.
.	.	.	.	4d'	.	4fX'	.	.
=167	=167	=167	=167	=167	=167	=167	=167	=167
4D]	.	4F]	.	2.cX	.	2.e	.	ii(94)
4CX'	.	4E'	.	.	.	.	.	.
[2BB	.	[2D	.	.	.	.	.	.
.	.	.	.	4B'	.	4d'	.	ii
=168	=168	=168	=168	=168	=168	=168	=168	=168
4BB]	.	4D]	.	2.A	.	2.cX	.	i
4AA'	.	4CX'	.	.	.	.	.	.
[2A	.	[2cX	.	.	.	.	.	.
.	.	.	.	4A'	.	4e'	.	.
=169	=169	=169	=169	=169	=169	=169	=169	=169
!	!	!	!LO:DY:a	!	!	!	!	!
4A]	.	4c]	pp	2.A	.	2.d#X	pp	.Ger6
4FX'	pp	4A'	pp	.	.	.	.	.
[2FFX	.	[2AA	.	.	.	.	.	.
.	.	.	.	4d#X'	.	4b'	.	.Fr6
=170	=170	=170	=170	=170	=170	=170	=170	=170
4FF]	.	4AA]	.	2.e	.	2.b	.	V
4EE'	.	4BB'	.	.	.	.	.	.
[2E	.	[2G#	.	.	.	.	.	.
.	.	.	.	4B'	.	4e'	.	.
=171	=171	=171	=171	=171	=171	=171	=171	=171
4E]	.	4G#]	.	2.B	.	2.d#X	.	.Fr6
4FX'	.	4A'	.	.	.	.	.	.
[2FFX	.	[2AA	.	.	.	.	.	.
.	.	.	.	4d#X'	.	4b'	.	.
=172	=172	=172	=172	=172	=172	=172	=172	=172
8FF]	.	8AA]	.	4.e	.	4.b	.	V
8EE	.	8BB	.	.	.	.	.	.
4.E	.	4.G#	.	.	.	.	.	.
.	.	.	.	8B	.	8e	.	.
.	.	.	.	4.B	.	4.d#X	.	.Fr6
8FX	.	8A	.	.	.	.	.	.
[4FFX	.	[4AA	.	.	.	.	.	.
.	.	.	.	8d#X	.	8b	.	.
=173	=173	=173	=173	=173	=173	=173	=173	=173
!	!	!	!	!LO:TX:b:i:t=cresc.	!	!LO:TX:b:i:t=cresc.	!	!
8FF]	.	8AA]	.	4.e	.	4.b	.	V
!LO:TX:b:i:t=cresc.	!	!LO:TX:b:i:t=cresc.	!	!	!	!	!	!
8EE	.	8BB	.	.	.	.	.	.
4.E	.	4.G#	.	.	.	.	.	.
.	.	.	.	8E	.	8e	.	.
.	.	.	.	4.E	.	4.e	.	.
8F#	.	8A	.	.	.	.	.	.
[4FF#	.	[4AA	.	.	.	.	.	.
.	.	.	.	8e	.	8ee	.	.
=174	=174	=174	=174	=174	=174	=174	=174	=174
8FF#]	.	8AA]	.	4.e	.	4.ee	.	.
8FF##X	.	8AA#X	.	.	.	.	.	.
4.F##X	.	4.A#X	.	.	.	.	.	.
.	.	.	.	8E	.	8e	.	.
.	.	.	.	4.E	.	4.e	.	V6
8G#	.	8B	.	.	.	.	.	.
[4GG#	.	[4BB	.	.	.	.	.	.
.	.	.	.	8e	.	8ee	.	.
=175	=175	=175	=175	=175	=175	=175	=175	=175
8GG#]	.	8BB]	.	4.e	.	4.ee	.	i
8AA	.	8CX	.	.	.	.	.	.
4.A	.	4.cX	.	.	.	.	.	.
.	.	.	.	8E	.	8e	.	.
.	.	.	.	4.E	.	4.e	.	.
8A#X	.	8c#	.	.	.	.	.	.
[4AA#X	.	[4C#	.	.	.	.	.	.
.	.	.	.	8e	.	8ee	.	.
=176	=176	=176	=176	=176	=176	=176	=176	=176
8AA#]	.	8C#]	.	4.e	ff	4.ee	ff	V43
!	!LO:DY:a	!	!	!	!	!	!	!
8BB	ff ff	8D	.	.	.	.	.	.
4.B	.	4.d	.	.	.	.	.	.
.	.	.	.	8E	.	8e	.	.
.	.	.	.	4.e	.	4.ee	.	.
8BB	.	8D	.	.	.	.	.	.
[4B	.	[4d	.	.	.	.	.	.
.	.	.	.	8E	.	8e	.	.
=177	=177	=177	=177	=177	=177	=177	=177	=177
8B]	.	8d]	.	4.e	.	4.ee	.	.
8BB	.	8D	.	.	.	.	.	.
4.B	.	4.d	.	.	.	.	.	.
.	.	.	.	8E	.	8e	.	.
.	.	.	.	4.e	.	4.ee	.	.
8BB	.	8D	.	.	.	.	.	.
4B	.	4d	.	.	.	.	.	.
.	.	.	.	8E	.	8e	.	.
=178	=178	=178	=178	=178	=178	=178	=178	=178
.	.	.	.	.	.	8qqfX/	f >	.
4B	f	4d	f	4G#	f	[1et	.	.
4r	.	4r	.	4r	.	.	.	.
2r	.	2r	.	2r	.	.	.	.
=179	=179	=179	=179	=179	=179	=179	=179	=179
1r	.	1r	.	1r	.	1e]	]]	.
=180	=180	=180	=180	=180	=180	=180	=180	=180
.	.	.	.	.	.	8qqf#/	p	V65
!	!	!	!LO:DY:a	!	!	!	!	!
4GG#	p	4B	p p	4E 4d	.	[1eT	.	.
4r	.	4r	.	4r	.	.	.	.
2r	.	2r	.	2r	.	.	.	.
=181	=181	=181	=181	=181	=181	=181	=181	=181
1r	.	1r	.	2r	.	1e_	.	I6
.	.	.	.	4r	.	.	.	.
.	.	.	.	(4c#	pp	.	.	.
=182	=182	=182	=182	=182	=182	=182	=182	=182
2r	.	4r	.	[1d)	.	2.e]	.	V43
.	.	(4A#X	pp	.	.	.	.	.
4r	.	[2B)	.	.	.	.	.	.
(4F##X	pp	.	.	.	.	(16bLL	.	.
.	.	.	.	.	.	16cc#	.	.
.	.	.	.	.	.	16dd	.	.
.	.	.	.	.	.	16cc#JJ	.	.
=183	=183	=183	=183	=183	=183	=183	=183	=183
[1G#)	.	1B_	.	1d_	.	16eeLL	.	V65
.	.	.	.	.	.	16dd	.	.
.	.	.	.	.	.	16cc#	.	.
.	.	.	.	.	.	16ddJJ)	.	.
.	.	.	.	.	.	(16g#LL	.	.
.	.	.	.	.	.	16a	.	.
.	.	.	.	.	.	16b	.	.
.	.	.	.	.	.	16a#XJJ	.	.
.	.	.	.	.	.	16cc#LL	.	.
.	.	.	.	.	.	16b	.	.
.	.	.	.	.	.	16a#	.	.
.	.	.	.	.	.	16bJJ)	.	.
.	.	.	.	.	.	(16dLL	.	.
.	.	.	.	.	.	16e	.	.
.	.	.	.	.	.	16f#	.	.
.	.	.	.	.	.	16e#XJJ	.	.
=184	=184	=184	=184	=184	=184	=184	=184	=184
4G#]	.	4B]	.	4d]	.	16g#LL	.	.
.	.	.	.	.	.	16f#	.	.
.	.	.	.	.	.	16e	.	.
.	.	.	.	.	.	16dJJ	.	.
4r	.	4r	.	4r	.	16c#LL	.	.
.	.	.	.	.	.	16B	.	.
.	.	.	.	.	.	16d	.	.
.	.	.	.	.	.	16BJJ	.	.
2r	.	2r	.	2r	.	16ALL	.	.
.	.	.	.	.	.	16G#	.	.
.	.	.	.	.	.	16B	.	.
.	.	.	.	.	.	16G#JJ)	.	.
.	.	.	.	.	.	(12EL	.	.
.	.	.	.	.	.	12G#	.	.
.	.	.	.	.	.	12BJ	.	.
=185	=185	=185	=185	=185	=185	=185	=185	=185
1r	.	1r	.	1r	.	12dL	.	V2
.	.	.	.	.	.	12e	.	.
.	.	.	.	.	.	12g#J	.	.
.	.	.	.	.	.	12bL	.	.
.	.	.	.	.	.	12dd	.	.
.	.	.	.	.	.	12eeJ	.	.
.	.	.	.	.	.	12gg#L	.	.
.	.	.	.	.	.	12bb	.	.
.	.	.	.	.	.	12dddJ	.	.
.	.	.	.	.	.	12bbL	.	.
.	.	.	.	.	.	12gg#	.	.
.	.	.	.	.	.	12eeJ)	.	.
=186	=186	=186	=186	=186	=186	=186	=186	=186
1r	.	1r	.	1r	.	(12ddL	.	V7
.	.	.	.	.	.	12b	.	.
.	.	.	.	.	.	12g#J	.	.
.	.	.	.	.	.	12eL	.	.
.	.	.	.	.	.	12e#X	.	.
.	.	.	.	.	.	12f#J)	.	.
.	.	.	.	.	.	(12g#L	.	.
.	.	.	.	.	.	12f#)	.	.
.	.	.	.	.	.	(12e'J	.	.
.	.	.	.	.	.	12d'L	.	.
.	.	.	.	.	.	12c#'	.	.
.	.	.	.	.	.	12B'J)	.	.
=187	=187	=187	=187	=187	=187	=187	=187	=187
4r	.	4r	.	4r	.	(2d	.	.
8EE	.	8G#	.	8B	.	.	.	.
8r	.	8r	.	8r	.	.	.	.
8AA	.	8E	.	8A	.	16c#LL	.	I
.	.	.	.	.	.	16d	.	.
8r	.	8r	.	8r	.	16e	.	.
.	.	.	.	.	.	16e#XJJ)	.	.
4r	.	4r	.	(4d#X	.	[4f#T	.	.
=188	=188	=188	=188	=188	=188	=188	=188	=188
2r	.	4r	.	[1e)	pp	2.f#]	pp	V65/ii
.	.	(4B#X	pp	.	.	.	.	.
4r	.	[2c#)	.	.	.	.	.	.
4G##X	pp	.	.	.	.	(16eeLL	.	.
.	.	.	.	.	.	16ff#	.	.
.	.	.	.	.	.	16ggX	.	.
.	.	.	.	.	.	16ff#JJ	.	.
=189	=189	=189	=189	=189	=189	=189	=189	=189
[1A#X	.	1c#_	.	1e_	.	16aaLL	.	.
.	.	.	.	.	.	16ggX	.	.
.	.	.	.	.	.	16ff#	.	.
.	.	.	.	.	.	16ggJJ)	.	.
.	.	.	.	.	.	(16cc#LL	.	.
.	.	.	.	.	.	16dd	.	.
.	.	.	.	.	.	16ee	.	.
.	.	.	.	.	.	16dd#XJJ	.	.
.	.	.	.	.	.	16ff#LL	.	.
.	.	.	.	.	.	16ee	.	.
.	.	.	.	.	.	16dd#	.	.
.	.	.	.	.	.	16eeJJ)	.	.
.	.	.	.	.	.	(16a#XLL	.	.
.	.	.	.	.	.	16b	.	.
.	.	.	.	.	.	16cc#	.	.
.	.	.	.	.	.	16bJJ	.	.
=190	=190	=190	=190	=190	=190	=190	=190	=190
4A#]	.	4c#]	.	4e]	.	16ddLL	.	.
.	.	.	.	.	.	16cc#	.	.
.	.	.	.	.	.	16b	.	.
.	.	.	.	.	.	16a#XJJ	.	.
4r	.	4r	.	4r	.	16gXLL	.	.
.	.	.	.	.	.	16f#	.	.
.	.	.	.	.	.	16e	.	.
.	.	.	.	.	.	16dJJ	.	.
2r	.	2r	.	2r	.	16c#LL	.	.
.	.	.	.	.	.	16B	.	.
.	.	.	.	.	.	16A#X	.	.
.	.	.	.	.	.	16GXJJ)	.	.
.	.	.	.	.	.	(12F#'L	.	.
.	.	.	.	.	.	12A#'	.	.
.	.	.	.	.	.	12c#'J)	.	.
=191	=191	=191	=191	=191	=191	=191	=191	=191
1r	.	1r	.	1r	.	(12e'L	.	.
.	.	.	.	.	.	12f#'	.	.
.	.	.	.	.	.	12a#X'J)	.	.
.	.	.	.	.	.	(12cc#'L	.	.
.	.	.	.	.	.	12ee'	.	.
.	.	.	.	.	.	12ff#'J)	.	.
.	.	.	.	.	.	(12aa#X'L	.	.
.	.	.	.	.	.	12ccc#'	.	.
.	.	.	.	.	.	12eee'J)	.	.
.	.	.	.	.	.	(12ccc#'L	.	.
.	.	.	.	.	.	12aa#'	.	.
.	.	.	.	.	.	12ff#'J)	.	.
=192	=192	=192	=192	=192	=192	=192	=192	=192
1r	.	1r	.	1r	.	(12ee'L	.	.
.	.	.	.	.	.	12ggX'	.	.
.	.	.	.	.	.	12ee'J)	.	.
.	.	.	.	.	.	(12cc#'L	.	.
.	.	.	.	.	.	12a#X'	.	.
.	.	.	.	.	.	12gX'J)	.	.
.	.	.	.	.	.	(12f#'L	.	.
.	.	.	.	.	.	12e'	.	.
.	.	.	.	.	.	12f#'J)	.	.
.	.	.	.	.	.	(12g'L	.	.
.	.	.	.	.	.	12f#')	.	.
.	.	.	.	.	.	12c#'J	.	.
=193	=193	=193	=193	=193	=193	=193	=193	=193
4r	.	4r	.	4r	.	(2e	.	V7/ii
8FF#	.	8A#X	.	8c#	.	.	.	.
8r	.	8r	.	8r	.	.	.	.
8BB	.	8F#	.	8B	.	16dLL	.	ii
.	.	.	.	.	.	16e	.	.
8r	.	8r	.	8r	.	16e#X	.	.
.	.	.	.	.	.	16f#JJ)	.	.
4r	.	(4D#X	.	4r	.	[4gX	.	.
=194	=194	=194	=194	=194	=194	=194	=194	=194
!	!	!LO:TX:b:i:t=cresc.	!	!LO:TX:b:i:t=cresc.	!	!LO:TX:b:i:t=cresc.	!	!
1r	.	(4E)	.	2.E	.	1g]	.	iiio2
.	.	4BB-X	.	.	.	.	.	.
.	.	4BB	.	.	.	.	.	.
.	.	4BB-X)	.	(4c#	.	.	.	.
=195	=195	=195	=195	=195	=195	=195	=195	=195
!LO:TX:b:i:t=cresc.	!	!	!	!	!	!	!	!
4r	.	2.BB	.	2.d)	.	1g#t	.	V7
(4FFX	.	.	.	.	.	.	.	.
4EE)	.	.	.	.	.	.	.	.
8EE'	.	8B'	.	8E' 8c#	.	.	.	.
8r	.	8r	.	8r	.	.	.	.
=196	=196	=196	=196	=196	=196	=196	=196	=196
!	!LO:DY:a	!	!LO:DY:a	!	!LO:DY:a	!	!	!
8AAAL	f f	[2A	f	[2E [2c#	f	[2a 4E 4c#	.	I[I
8AA	.	.	.	.	.	.	.	.
8AA	.	.	.	.	.	.	.	.
8AAJ	.	.	.	.	.	.	.	.
8AAL	.	8A]	.	8E] 8c#]	.	8aL]	.	.
8AA	.	(16C#LL	.	(16aLL	.	(16aaL	.	.
.	.	16DJJ)	.	16bJJ)	.	16bbJJ)	.	.
8AA	.	8E'L	.	8cc#'L	.	8ccc#'L	.	.
8AAJ	.	8C#'J	.	8a'J	.	8aa'J	.	.
=197	=197	=197	=197	=197	=197	=197	=197	=197
8AAL	.	8D'L	.	8f#'L	.	8ff#'L	.	IV
8AAA	.	(16DL	.	(16f#L	.	(16ff#L	.	.
.	.	16EJJ)	.	16g#JJ)	.	16gg#JJ)	.	.
8AA	.	8F#'L	.	8a'L	.	8aa'L	.	.
8AAJ	.	8D'J	.	8f#'J	.	8ff#'J	.	.
8AAL	.	8BL	.	8dL	.	8ddL	.	viio
8AAA	.	(16G#L	.	(16BL	.	(16bL	.	.
.	.	16AJJ)	.	16c#JJ)	.	16cc#JJ)	.	.
8AA	.	8B'L	.	8d'L	.	8dd'L	.	.
8AAJ	.	8G#'J	.	8B'J	.	8b'J	.	.
=198	=198	=198	=198	=198	=198	=198	=198	=198
8AAL	.	(8AL	.	(8c#L	.	(8cc#L	.	I
8AAA	.	8EJ)	.	8eJ)	.	8eeJ)	.	.
8AA	.	[4C#	.	[4a	.	[4aa	.	.
8AAJ	.	.	.	.	.	.	.	.
8AAL	.	(16C#LL]	.	(16aLL]	.	(16aaLL]	.	.
.	.	16D	.	16b	.	16bb	.	.
8AA	.	16C#	.	16a	.	16aa	.	.
.	.	16DJJ)	.	16bJJ)	.	16bbJJ)	.	.
!	!LO:DY:a	!	!	!	!	!	!	!
8AA	sf	8E'L	.	8cc#'L	sf	8ccc#'L	sf	.
8AAJ	.	8C#'J	.	8a'J	.	8aa'J	.	.
=199	=199	=199	=199	=199	=199	=199	=199	=199
8AAL	.	(16DLL	.	(16f#LL	.	(16ff#LL	.	IV
.	.	16E	.	16g#	.	16gg#	.	.
8AAA	.	16D	.	16f#	.	16ff#	.	.
.	.	16EJJ)	.	16g#JJ)	.	16gg#JJ)	.	.
8AA	.	8F#'L	sf	8a'L	sf	8aa'L	sf	.
8AAJ	.	8D'J	.	8f#'J	.	8ff#'J	.	.
8AAL	.	(16G#LL	.	(16BLL	.	(16bLL	.	viio
.	.	16A	.	16c#	.	16cc#	.	.
8AAA	.	16G#	.	16B	.	16b	.	.
.	.	16AJJ)	.	16c#JJ)	.	16cc#JJ)	.	.
!	!	!	!LO:DY:a	!	!	!	!	!
8AA	.	8B'L	sf sf	8d'L	.	8dd'L	sf	.
8AAJ	.	8G#'J	.	8B'J	.	8b'J	.	.
=200	=200	=200	=200	=200	=200	=200	=200	=200
8AAL	.	(16ALL	.	(16c#LL	.	(16cc#LL	.	I
.	.	16E	.	16e	.	16ee	.	.
8AAA	.	16A	.	16c#	.	16cc#	.	.
.	.	16EJJ)	.	16eJJ)	.	16eeJJ)	.	.
8AA	.	4C#	.	4a	.	4aa	.	I]
8AAJ	.	.	.	.	.	.	.	.
2FF#	.	(16A#XLL	.	(16c#LL	.	(16cc#LL	.	V7/ii
.	.	16B	.	16d	.	16dd	.	.
.	.	16A#	.	16c#	.	16cc#	.	.
.	.	16BJJ)	.	16dJJ)	.	16ddJJ)	.	.
.	.	8c#'L	.	8e'L	.	8ee'L	.	.
.	.	8A#'J	.	8c#'J	.	8cc#'J	.	.
=201	=201	=201	=201	=201	=201	=201	=201	=201
8BBL	.	(16BLL	.	(16dLL	.	(16ddLL	.	ii
.	.	16F#	.	16f#	.	16ff#	.	.
8BBB	.	16B	.	16d	.	16dd	.	.
.	.	16F#JJ)	.	16f#JJ)	.	16ff#JJ)	.	.
8BB	.	4D	.	4b	.	4bb	.	.
8BBJ	.	.	.	.	.	.	.	.
2FF#	.	(16A#XLL	.	(16c#LL	.	(16cc#LL	.	V7/ii
.	.	16B	.	16d	.	16dd	.	.
.	.	16A#	.	16c#	.	16cc#	.	.
.	.	16BJJ)	.	16dJJ)	.	16ddJJ)	.	.
.	.	8c#'L	.	8e'L	.	8ee'L	.	.
.	.	8A#'J	.	8c#'J	.	8cc#'J	.	.
=202	=202	=202	=202	=202	=202	=202	=202	=202
8BBL	.	(16BLL	.	(16dLL	.	(16ddLL	.	ii
.	.	16F#	.	16f#	.	16ff#	.	.
8BBB	.	16B	.	16d	.	16dd	.	.
.	.	16F#JJ)	.	16f#JJ)	.	16ff#JJ)	.	.
8BB	.	8D'L	.	8b'L	.	8bb'L	.	.
8BBJ	.	8D'J	.	8b'J	.	8bb'J	.	.
(16BLL	.	(16dLL	.	(16bLL	.	(16gg#LL	.	viio
16G#	.	16B	.	16dd	.	16bb	.	.
16B	.	16d	.	16b	.	16gg#	.	.
16G#JJ)	.	16BJJ)	.	16ddJJ)	.	16bbJJ)	.	.
8E'L	.	8B'L	.	8gg#'L	.	8ddd'L	.	V7
8E'J	.	8G#'J	.	8bb'J	.	8ddd'J	.	.
=203	=203	=203	=203	=203	=203	=203	=203	=203
(16ALL	.	(16c#LL	.	(16eeLL	.	(16aaLL	.	I
16E	.	16A	.	16aa	.	16ccc#	.	.
16A	.	16c#	.	16ee	.	16aa	.	.
16EJJ)	.	16AJJ)	.	16aaJJ)	.	16ccc#JJ)	.	.
8C#'L	.	8E'L	.	8ccc#'L	.	8eee'L	.	I6
8A'J	.	8e'J	.	8ccc#'J	.	8eee'J	.	I
(16dLL	.	(16f#LL	.	(16ff#LL	.	(16aaLL	.	IV
16A	.	16d	.	16aa	.	16ddd	.	.
16d	.	16f#	.	16ff#	.	16aa	.	.
16AJJ)	.	16dJJ)	.	16aaJJ)	.	16dddJJ)	.	.
8F#'L	.	8A'L	.	8ddd'L	.	8fff#'L	.	IV6
8D'J	.	8A'J	.	8ddd'J	.	8fff#'J	.	IV
=204	=204	=204	=204	=204	=204	=204	=204	=204
[2E	.	(8AL	.	[2ccc#	.	[2eee	.	V(64)
.	.	16BL	.	.	.	.	.	.
.	.	16c#JJ	.	.	.	.	.	.
.	.	16dLL	.	.	.	.	.	.
.	.	16e	.	.	.	.	.	.
.	.	16f#	.	.	.	.	.	.
.	.	16g#JJ)	.	.	.	.	.	.
(8EL]	.	[2a	.	(8ccc#L]	.	(8eeeL]	.	V7
16F#L	.	.	.	16bbL	.	16dddL	.	.
16G#JJ	.	.	.	16aaJJ	.	16ccc#JJ	.	.
16ALL	.	.	.	16gg#LL	.	16bbLL	.	.
16B	.	.	.	16ff#	.	16aa	.	.
16c#	.	.	.	16ee	.	16gg#	.	.
16dJJ)	.	.	.	16ddJJ)	.	16ff#JJ)	.	.
=205	=205	=205	=205	=205	=205	=205	=205	=205
8eL	.	8aL]	.	(4cc#	.	(4ee	.	V(64)
8E	.	(8A	.	.	.	.	.	.
8E	.	8B	.	8bL	.	8ddL	.	.
8EJ	.	8c#J)	.	8aJ)	.	8cc#J)	.	.
8EL	.	(4c#	.	(4aT	.	(4cc#t	.	.
8E	.	.	.	.	.	.	.	.
8E	.	8BL	.	8bL	.	8ddL	.	V7
8EJ	.	8dJ)	.	8g#J)	.	8bJ)	.	.
=206	=206	=206	=206	=206	=206	=206	=206	=206
(12AL	.	(12c#L	.	(12aL	.	(12cc#L	.	I\\
12E)	.	12A)	.	12cc#)	.	12ee)	.	.
12C#'J	.	12E'J	.	12ee'J	.	12aa'J	.	.
12C#L	.	12EL	.	12eeL	.	12aaL	.	I6
12C#	.	12E	.	12ee	.	12aa	.	.
12C#J	.	12EJ	.	12eeJ	.	12aaJ	.	.
(12EL	.	(12AL	.	(12cc#L	.	(12eeL	.	I64
12C#)	.	12E)	.	12ee)	.	12aa)	.	.
12AA'J	.	12C#'J	.	12aa'J	.	12ccc#'J	.	.
12AAL	.	12C#L	.	12aaL	.	12ccc#L	.	I
12AA	.	12C#	.	12aa	.	12ccc#	.	.
12AAJ	.	12C#J	.	12aaJ	.	12ccc#J	.	.
=207	=207	=207	=207	=207	=207	=207	=207	=207
(12DL	.	(12F#L	.	(12ddL	.	(12ff#L	.	IV
12AA)	.	12D)	.	12ff#)	.	12aa)	.	.
12FF#'J	.	12AA'J	.	12aa'J	.	12ddd'J	.	.
12FF#L	.	12AAL	.	12aaL	.	12dddL	.	IV6
12FF#	.	12AA	.	12aa	.	12ddd	.	.
12FF#J	.	12AAJ	.	12aaJ	.	12dddJ	.	.
(12AAL	.	(12DL	.	(12ff#L	.	(12aaL	.	IV64
12FF#)	.	12AA)	.	12aa)	.	12ddd)	.	.
12DD'J	.	12AA'J	.	12dddJ	.	12fff#'J	.	.
12DDL	.	12AAL	.	12dddL	.	12fff#L	.	IV
12DD	.	12AA	.	12ddd	.	12fff#	.	.
12DDJ	.	12AAJ	.	12dddJ	.	12fff#J	.	.
=208	=208	=208	=208	=208	=208	=208	=208	=208
(16EELL	.	(16AALL	.	[2ccc#	.	[2eee	.	I64
16AA	.	16C#	.	.	.	.	.	.
16BB	.	16D	.	.	.	.	.	.
16C#JJ	.	16EJJ	.	.	.	.	.	.
16DLL	.	16F#LL	.	.	.	.	.	.
16E	.	16G#	.	.	.	.	.	.
16F#	.	16A	.	.	.	.	.	.
16G#JJ)	.	16BJJ)	.	.	.	.	.	.
(16ALL	.	(16c#LL	.	(8ccc#L]	.	(8eeeL]	.	.
16C#	.	16E	.	.	.	.	.	.
16D	.	16F#	.	16bbL	.	16dddL	.	.
16EJJ	.	16G#JJ	.	16aaJJ	.	16ccc#JJ	.	.
16F#LL	.	16ALL	.	16gg#LL	.	16bbLL	.	.
16G#	.	16B	.	16ff#	.	16aa	.	.
16A	.	16c#	.	16ee	.	16gg#	.	.
16BJJ)	.	16dJJ)	.	16ddJJ)	.	16ff#JJ)	.	.
=209	=209	=209	=209	=209	=209	=209	=209	=209
8c#	.	8e	.	8cc#	.	8ee	.	I6
8r	.	8r	.	8r	.	8r	.	.
4r	.	4r	.	4r	.	8eee	.	.
.	.	.	.	.	.	8r	.	.
2r	.	2r	.	2r	.	8ccc#	.	.
.	.	.	.	.	.	8r	.	.
.	.	.	.	.	.	8aaa	.	.
.	.	.	.	.	.	8r	.	.
=210	=210	=210	=210	=210	=210	=210	=210	=210
!	!LO:DY:a	!	!	!	!	!	!	!
[1e	fp p	2r	.	2r	.	8E	.	I64
.	.	.	.	.	.	8r	.	.
.	.	.	.	.	.	8b#X	p	.
.	.	.	.	.	.	8r	.	.
.	.	4r	.	4r	.	[2cc#	.	#io7
!	!	!	!LO:DY:a	!	!	!	!	!
.	.	8A#X'	p	8gX'	.	.	.	.
.	.	8r	.	8r	.	.	.	.
=211	=211	=211	=211	=211	=211	=211	=211	=211
1e]	.	(2B	.	(2f#	.	(4cc#]	.	ii(+42)
.	.	.	.	.	.	4cc#t	.	.
.	.	2E) 2d	.	2g#)	.	4ee	.	V7
.	.	.	.	.	.	8ddL	.	.
.	.	.	.	.	.	8bJ)	.	.
=212	=212	=212	=212	=212	=212	=212	=212	=212
[1e	.	2.A	.	2.c# 2.a	.	8a	.	I\\
.	.	.	.	.	.	8r	.	.
.	.	.	.	.	.	8b#X'	.	.
.	.	.	.	.	.	8r	.	.
.	.	.	.	.	.	[2cc#	.	#io7
.	.	8A#X'	.	8gX'	.	.	.	.
.	.	8r	.	8r	.	.	.	.
=213	=213	=213	=213	=213	=213	=213	=213	=213
1e_	.	(2B	.	(2f#	.	(4cc#]	.	ii(+42)
.	.	.	.	.	.	4cc#t	.	.
.	.	2E) 2d	.	2g#)	.	4ee	.	V7
.	.	.	.	.	.	8ddL	.	.
.	.	.	.	.	.	8bJ)	.	.
=214	=214	=214	=214	=214	=214	=214	=214	=214
2.e]	.	2.A	.	2.c# 2.a	.	8cc#	.	I\\
.	.	.	.	.	.	8r	.	.
.	.	.	.	.	.	8dd#X	.	.
.	.	.	.	.	.	8r	.	.
.	.	.	.	.	.	[2ee	.	.
8A'	.	8c#'	.	(8c#L	.	.	.	.
8r	.	8r	.	8d#XJ)	.	.	.	.
=215	=215	=215	=215	=215	=215	=215	=215	=215
(2G#	.	(2B	.	(4e	.	(4ee]	.	V6
.	.	.	.	8BL	.	8ff#L	.	.
.	.	.	.	8c#J	.	8eeJ	.	.
2F#	.	2A	.	4d	.	4dd	.	IV6
.	.	.	.	8eL	.	8eeL	.	.
.	.	.	.	8f#J)	.	8ddJ)	.	.
=216	=216	=216	=216	=216	=216	=216	=216	=216
2E	.	2G#	.	(4g#	.	(4cc#	.	iii6
.	.	.	.	8G#L	.	8ddL	.	.
.	.	.	.	8AJ	.	8cc#J	.	.
2D)	.	2F#)	.	4B	.	4b	.	ii6
.	.	.	.	8c#L	.	8cc#L	.	.
.	.	.	.	8dJ)	.	8bJ)	.	.
=217	=217	=217	=217	=217	=217	=217	=217	=217
(2C#	.	(4.GX	.	(16eLL	.	2a#X	.	#viio43/ii
.	.	.	.	16gX	.	.	.	.
.	.	.	.	16f#	.	.	.	.
.	.	.	.	16gJJ	.	.	.	.
.	.	.	.	16f#LL	.	.	.	.
.	.	.	.	16g	.	.	.	.
.	.	8E	.	16f#	.	.	.	.
.	.	.	.	16gJJ)	.	.	.	.
8D)	.	8F#)	.	8f#	.	(16bLL	.	ii6
.	.	.	.	.	.	16f#	.	.
8r	.	8r	.	8r	.	16dd	.	.
.	.	.	.	.	.	16bJJ)	.	.
4r	.	4r	.	4r	.	8ff#L	.	.
.	.	.	.	.	.	8ff#J	.	.
=218	=218	=218	=218	=218	=218	=218	=218	=218
(2BB	.	(4.FX	.	(16dLL	.	2g#	.	viio65
.	.	.	.	16fX	.	.	.	.
.	.	.	.	16e	.	.	.	.
.	.	.	.	16fJJ	.	.	.	.
.	.	.	.	16eLL	.	.	.	.
.	.	.	.	16f	.	.	.	.
.	.	8D	.	16e	.	.	.	.
.	.	.	.	16fJJ)	.	.	.	.
8C#)	.	8E)	.	8e	.	(16aLL	.	I6
.	.	.	.	.	.	16e	.	.
8r	.	8r	.	8r	.	16cc#	.	.
.	.	.	.	.	.	16aJJ)	.	.
4r	.	4r	.	4r	.	8eeL	.	.
.	.	.	.	.	.	8eeJ	.	.
=219	=219	=219	=219	=219	=219	=219	=219	=219
(2C#	.	2A#X	.	2E	.	16r	.	#viio65/ii
.	.	.	.	.	.	(16ggXLL	.	.
.	.	.	.	.	.	16ff#	.	.
.	.	.	.	.	.	16ggJJ	.	.
.	.	.	.	.	.	16ff#LL	.	.
.	.	.	.	.	.	16gg	.	.
.	.	.	.	.	.	16ff#	.	.
.	.	.	.	.	.	16ggJJ)	.	.
8D)	.	(16BLL	.	16F#	.	8ff#	.	ii6
.	.	16F#	.	(16bLL	.	.	.	.
8r	.	16d	.	16a#X	.	8r	.	.
.	.	16BJJ)	.	16bJJ	.	.	.	.
4r	.	8f#L	.	16a#LL	.	4r	.	.
.	.	.	.	16b	.	.	.	.
.	.	8f#J	.	16a#	.	.	.	.
.	.	.	.	16bJJ)	.	.	.	.
=220	=220	=220	=220	=220	=220	=220	=220	=220
(2BB	.	2G#	.	2d	.	16r	.	viio65
.	.	.	.	.	.	(16ffXLL	.	.
.	.	.	.	.	.	16ee	.	.
.	.	.	.	.	.	16ffJJ	.	.
.	.	.	.	.	.	16eeLL	.	.
.	.	.	.	.	.	16ff	.	.
.	.	.	.	.	.	16ee	.	.
.	.	.	.	.	.	16ffJJ)	.	.
8C#)	.	(16ALL	.	16c#LL	.	8ee	.	I6
.	.	16E	.	(16a	.	.	.	.
8r	.	16c#	.	16g#	.	8r	.	.
.	.	16AJJ)	.	16aJJ	.	.	.	.
4r	.	8eL	.	16g#LL	.	4r	.	.
.	.	.	.	16a	.	.	.	.
.	.	8eJ	.	16g#	.	.	.	.
.	.	.	.	16aJJ)	.	.	.	.
=221	=221	=221	=221	=221	=221	=221	=221	=221
1r	.	2.e	p	4r	.	4r	.	V7
.	.	.	.	8a#X'	p	8cc#'	p	V7(6#4)
.	.	.	.	8r	.	8r	.	.
.	.	.	.	[2b	.	[2dd	.	viio2
.	.	8fX'	.	.	.	.	.	.
.	.	8r	.	.	.	.	.	.
=222	=222	=222	=222	=222	=222	=222	=222	=222
2.G#	p	2.e	.	4b]	.	4dd]	.	V65
.	.	.	.	8a#X'	.	8cc#'	.	.
.	.	.	.	8r	.	8r	.	.
.	.	.	.	[2b	.	[2dd	.	.
8A'	.	8fX'	.	.	.	.	.	.
8r	.	8r	.	.	.	.	.	.
=223	=223	=223	=223	=223	=223	=223	=223	=223
!LO:TX:b:i:t=cresc.	!	!LO:TX:b:i:t=cresc.	!	!LO:TX:b:i:t=cresc.	!	!LO:TX:b:i:t=cresc.	!	!
4.G#	.	4.e	.	8bL]	.	8ddL]	.	.
.	.	.	.	8a#X'J	.	8cc#'J	.	.
.	.	.	.	4.b	.	4.dd	.	.
8A'	.	8fX'	.	.	.	.	.	.
4.G#	.	4.e	.	.	.	.	.	.
.	.	.	.	8cc#'	.	8aa#X'	.	.
.	.	.	.	[4dd	.	[4bb	.	.
8A'	.	8f'	.	.	.	.	.	.
=224	=224	=224	=224	=224	=224	=224	=224	=224
4.G#	.	4.e	.	8ddL]	.	8bbL]	.	.
.	.	.	.	8cc#'J	.	8aa#X'J	.	.
.	.	.	.	4.dd	.	4.bb	.	.
8A'	.	8fX'	.	.	.	.	.	.
4.G#	.	4.e	.	.	.	.	.	.
.	.	.	.	8aa#X'	.	8ccc#'	.	.
.	.	.	.	[4bb	.	[4ddd	.	.
8A'	.	8f'	.	.	.	.	.	.
=225	=225	=225	=225	=225	=225	=225	=225	=225
8.G#L	.	8.eL	.	16bbLL]	.	16dddLL]	.	.
.	.	.	.	16aa#XJ	.	16ccc#J	.	.
.	.	.	.	8.bbJ	.	8.dddJ	.	.
16AJk	.	16fXJk	.	.	.	.	.	.
8.G#L	.	8.eL	.	.	.	.	.	.
.	.	.	.	16aa#KL	.	16ccc#KL	.	.
.	.	.	.	8.bbJ	.	8.dddJ	.	.
16AJk	.	16fJk	.	.	.	.	.	.
8.G#L	.	8.eL	.	.	.	.	.	.
.	.	.	.	16aa#KL	.	16ccc#KL	.	.
.	.	.	.	8.bbJ	.	8.dddJ	.	.
16AJk	.	16fJk	.	.	.	.	.	.
8.G#L	.	8.eL	.	.	.	.	.	.
.	.	.	.	16aa#KL	.	16ccc#KL	.	.
.	.	.	.	[8bbJ	.	[8dddJ	.	.
16AJk	.	16fJk	.	.	.	.	.	.
=226	=226	=226	=226	=226	=226	=226	=226	=226
8G#	f	8e	f	8bb'L]	f	8ddd'L]	f	.
8r	.	8r	.	(16bbL	.	(16dddL	.	.
.	.	.	.	16ccc#JJ	.	16eeeJJ	.	.
8E	.	8B 8d	.	8ddd'L)	.	8fff#'L)	.	V7(+9)
8r	.	8r	.	(16gg#L	.	(16bbL	.	.
.	.	.	.	16aaJJ	.	16ccc#JJ	.	.
8E	.	8B 8d	.	8bb'L)	.	8ddd'L)	.	V7
8r	.	8r	.	(16bL	.	(16ddL	.	.
.	.	.	.	16cc#JJ	.	16eeJJ	.	.
8EE	.	8G# 8B	.	8dd'L)	.	8ff#'L)	.	V7(+9)
8r	.	8r	.	(16g#L	.	(16bL	.	.
.	.	.	.	16aJJ	.	16cc#JJ	.	.
=227	=227	=227	=227	=227	=227	=227	=227	=227
8EE	.	8G# 8B	.	8b'L)	.	8dd'L)	.	V7
8r	.	8r	.	(16g#L	.	(16bL	.	.
.	.	.	.	16aJJ)	.	16cc#JJ)	.	.
4r	.	4r	.	(16bLL	.	(16ddLL	.	.
.	.	.	.	16cc#	.	16ee	.	.
.	.	.	.	16b	.	16dd	.	.
.	.	.	.	16aJJ)	.	16cc#JJ)	.	.
2r	.	2r	.	(16g#LL	.	(16bLL	.	.
.	.	.	.	16a	.	16cc#	.	.
.	.	.	.	16g#	.	16b	.	.
.	.	.	.	16f#JJ	.	16aJJ	.	.
.	.	.	.	16eLL	.	16g#LL	.	.
.	.	.	.	16d	.	16f#	.	.
.	.	.	.	16c#	.	16e	.	.
.	.	.	.	16BJJ)	.	16dJJ)	.	.
=228	=228	=228	=228	=228	=228	=228	=228	=228
!	!LO:DY:a	!	!LO:DY:a	!	!LO:DY:a	!	!	!
8AAA	f f	8AA	f	8A	f	8E 8c#	.	I\\
8r	.	8r	.	8r	.	8r	.	.
4r	.	4r	.	4r	.	(16eLL	p	V
.	.	.	.	.	.	16f#	.	.
.	.	.	.	.	.	16g#	.	.
.	.	.	.	.	.	16eJJ	.	.
2r	.	2r	.	2r	.	16aLL	.	I
.	.	.	.	.	.	16b	.	.
.	.	.	.	.	.	16cc#	.	.
.	.	.	.	.	.	16aJJ)	.	.
.	.	.	.	.	.	8ee'L	.	.
.	.	.	.	.	.	8ee'J	.	.
=229	=229	=229	=229	=229	=229	=229	=229	=229
8D	p	8F#	p	4r	.	(4ee	.	ii6(2)
8r	.	8r	.	.	.	.	.	.
!	!	!	!LO:DY:a	!	!	!	!	!
4r	.	4r	p	(16F#LL	.	[2.dd)	.	ii6
.	.	.	.	16G#	.	.	.	.
.	.	.	.	16A#X	.	.	.	.
.	.	.	.	16F#JJ	.	.	.	.
2r	.	2r	.	16BLL	.	.	.	.
.	.	.	.	16c#	.	.	.	.
.	.	.	.	16d	.	.	.	.
.	.	.	.	16BJJ)	.	.	.	.
.	.	.	.	8f#'L	.	.	.	.
.	.	.	.	8f#'J	.	.	.	.
=230	=230	=230	=230	=230	=230	=230	=230	=230
4r	.	2r	.	(4f#	.	(2.dd]	.	V65
(16EELL	.	.	.	2.e	.	.	.	.
16FF#	.	.	.	.	.	.	.	.
16GG#	.	.	.	.	.	.	.	.
16EEJJ	.	.	.	.	.	.	.	.
16GG#LL	.	4r	.	.	.	.	.	.
16AA	.	.	.	.	.	.	.	.
16BB	.	.	.	.	.	.	.	.
16GG#JJ)	.	.	.	.	.	.	.	.
(16ELL	.	(4B	.	.	.	4gg#	.	V7
16D	.	.	.	.	.	.	.	.
16C#	.	.	.	.	.	.	.	.
16BBJJ)	.	.	.	.	.	.	.	.
=231	=231	=231	=231	=231	=231	=231	=231	=231
8C#	.	8E)	.	(16eLL)	.	8aa')	.	I6
.	.	.	.	16f#	.	.	.	.
8r	.	8r	.	16g#	.	8r	.	.
.	.	.	.	16aJJ	.	.	.	.
8D	.	8A	.	16g#LL	.	8ff#	.	IV
.	.	.	.	16f#	.	.	.	.
8r	.	8r	.	16e	.	8r	.	.
.	.	.	.	16dJJ)	.	.	.	.
8E	.	8A	.	(16c#LL	.	8ee	.	V(64)
.	.	.	.	16d	.	.	.	.
8r	.	8r	.	16e	.	8r	.	.
.	.	.	.	16f#JJ	.	.	.	.
8EE	.	8D 8E	.	16eLL	.	8g#	.	V7
.	.	.	.	16d	.	.	.	.
8r	.	8r	.	16c#	.	8r	.	.
.	.	.	.	16BJJ)	.	.	.	.
=232	=232	=232	=232	=232	=232	=232	=232	=232
!	!LO:DY:a	!	!LO:DY:a	!	!LO:DY:a	!	!	!
8AA	f f	8C# 8E	f	8A	f	8a	.	I\\
8r	.	8r	.	8r	.	8r	.	.
4r	.	(16ELL	p	4r	.	4r	.	V
.	.	16F#	.	.	.	.	.	.
.	.	16G#	.	.	.	.	.	.
.	.	16EJJ	.	.	.	.	.	.
2r	.	16ALL	.	2r	.	2r	.	I
.	.	16B	.	.	.	.	.	.
.	.	16c#	.	.	.	.	.	.
.	.	16AJJ)	.	.	.	.	.	.
.	.	8e'L	.	.	.	.	.	.
.	.	8e'J	.	.	.	.	.	.
=233	=233	=233	=233	=233	=233	=233	=233	=233
!	!	!	!	!	!LO:DY:a	!	!	!
1r	.	(4e	.	1r	p	4r	.	ii6(2)
.	.	[2.d)	.	.	.	(16f#LL	.	ii6
.	.	.	.	.	.	16g#	.	.
.	.	.	.	.	.	16a#X	.	.
.	.	.	.	.	.	16f#JJ	.	.
.	.	.	.	.	.	16bLL	.	.
.	.	.	.	.	.	16cc#	.	.
.	.	.	.	.	.	16dd	.	.
.	.	.	.	.	.	16bJJ)	.	.
.	.	.	.	.	.	8ff#'L	.	.
.	.	.	.	.	.	8ff#'J	.	.
=234	=234	=234	=234	=234	=234	=234	=234	=234
!	!	!	!LO:DY:a	!	!	!	!	!
1r	.	2d]	p	4r	.	(4ff#	.	V2(2)
.	.	.	.	(16G#LL	.	[2.ee)	.	V43/ii
.	.	.	.	16A	.	.	.	.
.	.	.	.	16B	.	.	.	.
.	.	.	.	16G#JJ	.	.	.	.
.	.	[2c#	.	16A#XLL	.	.	.	.
.	.	.	.	16B	.	.	.	.
.	.	.	.	16c#	.	.	.	.
.	.	.	.	16A#JJ)	.	.	.	.
.	.	.	.	8f#'L	.	.	.	.
.	.	.	.	8f#'J	.	.	.	.
=235	=235	=235	=235	=235	=235	=235	=235	=235
4r	.	(4c#]	.	2.f#	.	(4ee]	.	.
(16BBLL	p	2B	.	.	.	2dd)	.	ii64
16C#	.	.	.	.	.	.	.	.
16D	.	.	.	.	.	.	.	.
16BBJJ	.	.	.	.	.	.	.	.
16F#LL	.	.	.	.	.	.	.	.
16G#	.	.	.	.	.	.	.	.
16A#X	.	.	.	.	.	.	.	.
16F#JJ)	.	.	.	.	.	.	.	.
8B'L	.	4BB)	.	(4F#	.	[4dd	.	ii
8B'J	.	.	.	.	.	.	.	.
=236	=236	=236	=236	=236	=236	=236	=236	=236
!	!	!	!LO:DY:a	!	!	!	!	!
(4c#	pp	[1C#	pp pp	(4E#X)	.	(4dd]	pp	V(2)/vi
4E#X	.	.	.	4G#	.	4cc#	.	V/vi
4F#	.	.	.	4A	.	4a	.	vi64
4A)	.	.	.	[4c#)	.	4f#	.	.
=237	=237	=237	=237	=237	=237	=237	=237	=237
(4G#	.	4C#]	.	(4c#]	.	4e#X	.	V/vi
4EE#X	.	2C#	.	4G#	.	4c#	.	V6/vi
4FF#	.	.	.	4A	.	4A	.	vi
4AA)	.	[4C#	.	4c#)	.	4F#)	.	vi6
=238	=238	=238	=238	=238	=238	=238	=238	=238
!LO:TX:a:i:t=cresc.	!	!LO:TX:b:i:t=cresc.	!	!LO:TX:b:i:t=cresc.	!	!LO:TX:b:i:t=cresc.	!	!
[1AA	.	4C#_	.	(1E 1c#	.	(1GX	.	V7/IV
.	.	(16C#LL]	.	.	.	.	.	.
.	.	16D	.	.	.	.	.	.
.	.	16E	.	.	.	.	.	.
.	.	16DJJ	.	.	.	.	.	.
.	.	16C#LL	.	.	.	.	.	.
.	.	16D	.	.	.	.	.	.
.	.	16C#	.	.	.	.	.	.
.	.	16BBJJ	.	.	.	.	.	.
.	.	16AALL	.	.	.	.	.	.
.	.	16BB	.	.	.	.	.	.
.	.	16C#	.	.	.	.	.	.
.	.	16DJJ)	.	.	.	.	.	.
=239	=239	=239	=239	=239	=239	=239	=239	=239
2AA]	.	(16ELL	.	2GX	.	2E 2c#	.	.
.	.	16F#	.	.	.	.	.	.
.	.	16E	.	.	.	.	.	.
.	.	16DJJ	.	.	.	.	.	.
.	.	16C#LL	.	.	.	.	.	.
.	.	16D	.	.	.	.	.	.
.	.	16C#	.	.	.	.	.	.
.	.	16BBJJ	.	.	.	.	.	.
(16AALL	.	2AA) 2E	.	2c#)	.	2gX)	.	.
16GGX	.	.	.	.	.	.	.	.
16FF#	.	.	.	.	.	.	.	.
16EEJJ	.	.	.	.	.	.	.	.
16DDLL	.	.	.	.	.	.	.	.
16CC#	.	.	.	.	.	.	.	.
16BBB	.	.	.	.	.	.	.	.
16AAAJJ)	.	.	.	.	.	.	.	.
=240	=240	=240	=240	=240	=240	=240	=240	=240
!	!LO:DY:a	!	!	!	!	!	!	!
8DDL	f f	16AALL 16F#	.	16dLL	f	2f#	f	IV
.	.	16D	.	16f#	.	.	.	.
8D	.	16E	.	16g#	.	.	.	.
.	.	16F#JJ	.	16aJJ	.	.	.	.
8D	.	16G#LL	.	16bLL	.	.	.	.
.	.	16A	.	16cc#	.	.	.	.
8DJ	.	16B	.	16dd	.	.	.	.
.	.	16c#JJ	.	16eeJJ	f	.	.	.
!	!LO:DY:a	!	!	!	!	!	!	!
8BBBL	f f	16d'LL	.	16ff#'LL	.	2ff#	f	ii
.	.	(16d	.	(16f#	.	.	.	.
8BB	.	16c#	.	16e#X	.	.	.	.
.	.	16dJJ	.	16f#JJ	.	.	.	.
8BB	.	16eLL	.	16g#LL	.	.	.	.
.	.	16d	.	16f#	.	.	.	.
8BBJ	.	16c#	.	16e#	.	.	.	.
.	.	16dJJ)	.	16f#JJ)	.	.	.	.
=241	=241	=241	=241	=241	=241	=241	=241	=241
8EEL	f	16r	f	16r	f	2ee	f	V(64)
.	.	(16c#LL	.	(16eLL	.	.	.	.
8E	.	16B#X	.	16d#X	.	.	.	.
.	.	16c#JJ	.	16eJJ	.	.	.	.
8E	.	16dLL	.	16f#LL	.	.	.	.
.	.	16c#	.	16e	.	.	.	.
8EJ	.	16B#	.	16d#	.	.	.	.
.	.	16c#JJ)	.	16eJJ)	.	.	.	.
8EEL	f	16r	f	16r	f	2gg#	f	V7
.	.	(16BLL	.	(16g#LL	.	.	.	.
8E	.	16d	.	16b	.	.	.	.
.	.	16BJJ	.	16g#JJ	.	.	.	.
8E	.	16dLL	.	16bLL	.	.	.	.
.	.	16B	.	16g#	.	.	.	.
8EJ	.	16d	.	16b	.	.	.	.
.	.	16BJJ)	.	16g#JJ)	.	.	.	.
=242	=242	=242	=242	=242	=242	=242	=242	=242
8AA	p	8c#	p	8a	p	8aa	p	I\\
8r	.	8r	.	8r	.	8r	.	.
4r	.	4r	.	4r	.	8bb#X	.	.
.	.	.	.	.	.	8r	.	.
4r	.	4r	.	4r	.	[2ccc#	.	III65
8e#X	.	8b	.	8gg#	.	.	.	.
8r	.	8r	.	8r	.	.	.	.
=243	=243	=243	=243	=243	=243	=243	=243	=243
(4f#	.	(4a	.	(4aa	.	4ccc#]	.	vi
4e	.	4gX	.	4aa#X	.	(4ccc#	.	#vii43
4d	.	4f#	.	4bb	.	4dddT	.	ii6
8c#L	.	8eL	.	8ccc#L	.	8eeeL	.	#viio6/ii
8BJ)	.	8dJ)	.	8dddJ)	.	8fff#J)	.	ii
=244	=244	=244	=244	=244	=244	=244	=244	=244
[1e	.	(8eL	.	(2eee	.	[2eee	.	V(64)
.	.	16f#L	.	.	.	.	.	.
.	.	16g#JJ	.	.	.	.	.	.
.	.	16aLL	.	.	.	.	.	.
.	.	16g#	.	.	.	.	.	.
.	.	16a	.	.	.	.	.	.
.	.	16bJJ	.	.	.	.	.	.
.	.	2cc#)	.	4aa	.	(8eeeL]	.	.
.	.	.	.	.	.	16dddL	.	.
.	.	.	.	.	.	16ccc#JJ	.	.
.	.	.	.	4ee)	.	16bbLL	.	.
.	.	.	.	.	.	16aa	.	.
.	.	.	.	.	.	16gg#	.	.
.	.	.	.	.	.	16aaJJ)	.	.
=245	=245	=245	=245	=245	=245	=245	=245	=245
1e]	.	2b	.	2.dd	.	(16gg#LL	.	V7
.	.	.	.	.	.	16bb	.	.
.	.	.	.	.	.	16ddd	.	.
.	.	.	.	.	.	16bbJJ	.	.
.	.	.	.	.	.	16gg#LL	.	.
.	.	.	.	.	.	16ee	.	.
.	.	.	.	.	.	16dd	.	.
.	.	.	.	.	.	16bJJ	.	.
.	.	4B	.	.	.	16g#LL	.	.
.	.	.	.	.	.	16b	.	.
.	.	.	.	.	.	16dd	.	.
.	.	.	.	.	.	16bJJ	.	.
.	.	4B 4d	.	(8bL	.	16g#LL	.	.
.	.	.	.	.	.	16e	.	.
.	.	.	.	16cc#L	.	16d	.	.
.	.	.	.	16ddJJ)	.	16BJJ)	.	.
=246	=246	=246	=246	=246	=246	=246	=246	=246
[1E	.	2A 2c#	.	[2ee	.	(16ALL	.	V(64)
.	.	.	.	.	.	16E	.	.
.	.	.	.	.	.	16F#	.	.
.	.	.	.	.	.	16G#JJ	.	.
.	.	.	.	.	.	16ALL	.	.
.	.	.	.	.	.	16G#	.	.
.	.	.	.	.	.	16A	.	.
.	.	.	.	.	.	16BJJ)	.	.
.	.	(2A	.	(8eeL]	.	2c#	.	.
.	.	.	.	16ddL	.	.	.	.
.	.	.	.	16cc#JJ	.	.	.	.
.	.	.	.	16bLL	.	.	.	.
.	.	.	.	16a	.	.	.	.
.	.	.	.	16g#	.	.	.	.
.	.	.	.	16aJJ)	.	.	.	.
=247	=247	=247	=247	=247	=247	=247	=247	=247
1E_	.	2.B	.	(16g#LL	.	(2.d	.	V7
.	.	.	.	16b	.	.	.	.
.	.	.	.	16dd	.	.	.	.
.	.	.	.	16bJJ	.	.	.	.
.	.	.	.	16g#LL	.	.	.	.
.	.	.	.	16e	.	.	.	.
.	.	.	.	16d	.	.	.	.
.	.	.	.	16BJJ	.	.	.	.
.	.	.	.	16G#LL	.	.	.	.
.	.	.	.	16B	.	.	.	.
.	.	.	.	16d	.	.	.	.
.	.	.	.	16BJJ	.	.	.	.
.	.	[4E)	.	16G#LL	.	4b)	.	.
.	.	.	.	16B	.	.	.	.
.	.	.	.	16e	.	.	.	.
.	.	.	.	16dJJ)	.	.	.	.
=248	=248	=248	=248	=248	=248	=248	=248	=248
!LO:TX:b:i:t=cresc.	!	!LO:TX:b:i:t=cresc.	!	!LO:TX:b:i:t=cresc.	!	!LO:TX:b:i:t=cresc.	!	!
8E]	.	8EL]	.	16c#LL	.	16cc#LL	.	V(64)
.	.	.	.	(16c#	.	(16ee	.	.
8r	.	(16EL	.	16d	.	16ff#	.	.
.	.	16DJJ	.	16eJJ	.	16gg#JJ	.	.
[4e	.	16C#LL	.	16f#LL	.	16aaLL	.	.
.	.	16D	.	16e	.	16gg#	.	.
.	.	16C#	.	16f#	.	16aa	.	.
.	.	16BBJJ)	.	16g#JJ)	.	16bbJJ)	.	.
(8eL]	.	8AA'L	.	8a'L	.	8ccc#'L	.	.
16dL	.	8E'	.	8b'	.	8ddd'	.	.
16c#JJ	.	.	.	.	.	.	.	.
16BLL	.	8E'	.	8cc#'	.	8eee'	.	.
16A	.	.	.	.	.	.	.	.
16G#	.	8E'J	.	8dd'J	.	8fff#'J	.	.
16AJJ)	.	.	.	.	.	.	.	.
=249	=249	=249	=249	=249	=249	=249	=249	=249
(16G#LL	.	4E	.	1ddT	.	1bbT	.	V65
16B	.	.	.	.	.	.	.	.
16d	.	.	.	.	.	.	.	.
16BJJ	.	.	.	.	.	.	.	.
16G#LL	.	2.g#t	.	.	.	.	.	.
16E	.	.	.	.	.	.	.	.
16D	.	.	.	.	.	.	.	.
16BBJJ)	.	.	.	.	.	.	.	.
(16GG#LL	.	.	.	.	.	.	.	.
16BB	.	.	.	.	.	.	.	.
16D	.	.	.	.	.	.	.	.
16BBJJ	.	.	.	.	.	.	.	.
16GG#LL	.	.	.	.	.	.	.	.
16BB	.	.	.	.	.	.	.	.
16GG#	.	.	.	.	.	.	.	.
16EEJJ)	.	.	.	.	.	.	.	.
=250	=250	=250	=250	=250	=250	=250	=250	=250
(16AALL	f	4a	f	4cc#	f	4aa	f	I\\
16GG#	.	.	.	.	.	.	.	.
16AA	.	.	.	.	.	.	.	.
16FF#JJ)	.	.	.	.	.	.	.	.
8EE'L	.	4r	.	4r	.	4r	.	.
8FF#'J	.	.	.	.	.	.	.	.
8GG#'L	.	2r	.	2r	.	2r	.	.
8AA'	.	.	.	.	.	.	.	.
8BB'	.	.	.	.	.	.	.	.
8C#'J	.	.	.	.	.	.	.	.
=251	=251	=251	=251	=251	=251	=251	=251	=251
8AA'L	f	(16ALL	f	1r	.	1r	.	V43
.	.	16G#	.	.	.	.	.	.
8BB'	.	16A	.	.	.	.	.	.
.	.	16F#JJ)	.	.	.	.	.	.
8C#'	.	8E'L	.	.	.	.	.	.
8D'J	.	8F#'J	.	.	.	.	.	.
8BB'L	.	8G#'L	.	.	.	.	.	.
8C#'	.	8A'	.	.	.	.	.	.
8D'	.	8B'	.	.	.	.	.	.
8E'J	.	8c#'J	.	.	.	.	.	.
=252	=252	=252	=252	=252	=252	=252	=252	=252
!	!LO:DY:a	!	!	!	!LO:DY:a	!	!	!
8C#'L	f f	8A'L	.	2r	f	(16aLL	.	I6
.	.	.	.	.	.	16g#	.	.
8D'	.	8B'	.	.	.	16a	.	.
.	.	.	.	.	.	16f#JJ)	.	.
8E'	.	8c#'	.	.	.	8e'L	.	.
8D'J	.	8B'J	.	.	.	8f#'J	.	.
8BB'L	.	8d'L	.	4r	.	8g#'L	.	viio6
8C#'	.	8c#'	.	.	.	8a'	.	I6
8GG#'	sf	8e'	sf	8d'L	sf	8b'	sf	V65
8AA'J	.	8e'J	.	8c#'J	.	8cc#'J	.	I
=253	=253	=253	=253	=253	=253	=253	=253	=253
8EL	.	8f#L	.	8c#'L	.	8a#X'L	.	V2/ii
8D	.	8f#	.	8B'	.	8b'	.	ii6
8AA#X'	sf	8e'	sf	8f#'	sf	8cc#'	sf	V65/ii
8BB'J	.	8d'J	.	8f#'J	.	8dd'J	.	ii
8C#'L	.	8A'L	.	8e'L	.	8ee'L	.	I6
8D'	.	8d'	.	8a'	.	8ff#'	.	IV
8BB'	sf	8d'	sf	8e'	sf	8gg#'	sf	V43
8C#'J	.	8c#'J	.	8e'J	.	8aa#X'J	.	#viio6/ii
=254	=254	=254	=254	=254	=254	=254	=254	=254
8GG#'L	.	8d'L	.	8e'L	.	8bb'L	.	V65
8AA'	.	8c#'	.	8ee'	.	8ccc#'	.	I
8FF#'	.	8A'	.	8dd'	.	8ddd'	.	IV6
8EE'J	.	8A'J	.	8cc#'J	.	8eee'J	.	I64
8DD	.	8A	.	8dd	.	8fff#	.	IV
8r	.	8r	.	8r	.	8r	.	.
8EE	.	8E 8d	.	8b	.	8ggg#	.	V7
8r	.	8r	.	8r	.	8r	.	.
=255	=255	=255	=255	=255	=255	=255	=255	=255
4AAA	.	4E 4c#	.	4a	.	(16aaaLL	.	I[I
.	.	.	.	.	.	16ggg#	.	.
.	.	.	.	.	.	16aaa	.	.
.	.	.	.	.	.	16fff#JJ)	.	.
8r	.	8r	.	8r	.	8eee'L	.	.
8AA'	.	8E' 8d	.	8g#'	.	[8eeeJ	.	V7
4AA'	.	4E' 4c#	.	4a'	.	(16eeeLL]	.	I64
.	.	.	.	.	.	16ddd#X	.	.
.	.	.	.	.	.	16eee	.	.
.	.	.	.	.	.	16ccc#JJ)	.	.
8r	.	8r	.	8r	.	8aa'L	.	.
8AA	.	8A 8d	.	8f#	.	[8aaJ	.	IV64
=256	=256	=256	=256	=256	=256	=256	=256	=256
4AA	.	4A 4c#	.	4e	.	(16aaLL]	.	I
.	.	.	.	.	.	16gg#	.	.
.	.	.	.	.	.	16aa	.	.
.	.	.	.	.	.	16ff#JJ)	.	.
8r	.	8r	.	8r	.	8ee'L	.	.
8AA	.	8G#	.	8d	.	[8eJ	.	V65
4AA	.	4A	.	4c#	.	(16eLL]	.	I
.	.	.	.	.	.	16d#X	.	.
.	.	.	.	.	.	16e	.	.
.	.	.	.	.	.	16c#JJ)	.	.
8r	.	8r	.	8r	.	8AL	.	.
8AA	.	8D	.	8F#	.	8AJ	.	IV
=257	=257	=257	=257	=257	=257	=257	=257	=257
!	!	!	!	!	!LO:DY:a	!	!	!
4AA	.	4C#	.	4E	fp	[1A	.	I6]
4r	.	4r	.	4r	.	.	.	.
2r	.	2r	.	4r	.	.	.	.
.	.	.	.	8B#X'	p	.	.	.
.	.	.	.	8r	.	.	.	.
=258	=258	=258	=258	=258	=258	=258	=258	=258
!LO:TX:a:t=pizz.	!LO:DY:a	!	!	!	!	!	!	!
2r	p	4r	.	2.c#	.	2.A]	.	V(64)
.	.	8F#'	.	.	.	.	.	.
.	.	8r	.	.	.	.	.	.
4r	.	[2E	.	.	.	.	.	.
4EE	.	.	.	(8.BL	.	(8.dL	.	V7
.	.	.	.	16G#Jk)	.	16BJk)	.	.
=259	=259	=259	=259	=259	=259	=259	=259	=259
4AAA	.	4E]	.	4A	fp	[1A	fp	I
4r	.	4r	.	4r	.	.	.	.
2r	.	2r	.	4r	.	.	.	.
.	.	.	.	8B#X'	.	.	.	.
.	.	.	.	8r	.	.	.	.
=260	=260	=260	=260	=260	=260	=260	=260	=260
2r	.	4r	.	2.c#	.	2.A]	.	V(64)
.	.	8F#'	.	.	.	.	.	.
.	.	8r	.	.	.	.	.	.
4r	.	[2E	.	.	.	.	.	.
4EE	.	.	.	(8.BL	.	(8.dL	.	V7
.	.	.	.	16G#Jk)	.	16BJk)	.	.
=261	=261	=261	=261	=261	=261	=261	=261	=261
4AAA	.	4E]	.	4A	.	2.A	.	I
4r	.	4r	.	4r	.	.	.	.
4r	.	4r	.	4r	.	.	.	.
!LO:TX:b:i:t=dim.	!	!LO:TX:b:i:t=dim.	!	!LO:TX:b:i:t=dim.	!	!LO:TX:b:i:t=dim.	!	!
4EE	.	[4E	.	(8.BL	.	(8.dL	.	V7
.	.	.	.	16G#Jk)	.	16BJk)	.	.
=262	=262	=262	=262	=262	=262	=262	=262	=262
4AAA	.	4E]	.	4A	.	2.A	.	I
4r	.	4r	.	4r	.	.	.	.
!LO:TX:a:t=arco.	!	!	!	!	!	!	!	!
4r	.	4r	.	4r	.	.	.	.
[4EE	.	[4E	.	(8.BL	.	(8.dL	.	V[V7
.	.	.	.	16G#Jk)	.	16BJk)	.	.
=263	=263	=263	=263	=263	=263	=263	=263	=263
4EE]	pp	1E_	pp	(2.B	pp	(2.d	pp	.
!LO:TX:a:i:t=string. il tempo.	!	!	!	!	!	!	!	!
8DD#X	.	.	.	.	.	.	.	.
8r	.	.	.	.	.	.	.	.
[2EE	.	.	.	.	.	.	.	.
.	.	.	.	8.c#L	.	8.eL	.	I64
.	.	.	.	16AJk)	.	16c#Jk)	.	.
=264	=264	=264	=264	=264	=264	=264	=264	=264
4EE]	.	1E_	.	(2.c#	.	(2.e	.	.
8DD#X	.	.	.	.	.	.	.	.
8r	.	.	.	.	.	.	.	.
[2EE	.	.	.	.	.	.	.	.
.	.	.	.	8.dL	.	8.f#L	.	V7(+9)
.	.	.	.	16BJk)	.	16dJk)	.	.
=265	=265	=265	=265	=265	=265	=265	=265	=265
!	!	!LO:TX:a:i:t=string. il tempo.	!	!LO:TX:b:i:t=cresc.	!	!LO:TX:a:i:t=cresc.	!	!
!LO:TX:b:i:t=cresc.	!	!LO:TX:b:i:t=cresc.	!	!LO:TX:a:i:t=string. il tempo.	!	!LO:TX:a:i:t=string. il tempo.	!	!
1EE_	.	8E]	.	8d	.	8f#	.	.
.	.	8r	.	8r	.	8r	.	.
.	.	8d	.	8B	.	8gX	.	.bVII6
.	.	8r	.	8r	.	8r	.	.
.	.	8d	.	8B	.	8g#	.	viio6
.	.	8r	.	8r	.	8r	.	.
.	.	8e	.	8c#	.	8a	.	I6
.	.	8r	.	8r	.	8r	.	.
=266	=266	=266	=266	=266	=266	=266	=266	=266
1EE_	.	8e	.	8c#	.	8a#X	.	#io6
.	.	8r	.	8r	.	8r	.	.
.	.	8d	.	8f#	.	8b	.	ii6
.	.	8r	.	8r	.	8r	.	.
.	.	8d#X	.	8f#	.	8b#X	.	#iio6
.	.	8r	.	8r	.	8r	.	.
.	.	8e	.	8g#	.	8cc#	.	iii6
.	.	8r	.	8r	.	8r	.	.
=267	=267	=267	=267	=267	=267	=267	=267	=267
1EE_	.	8f#	.	8a	.	8dd	.	IV6
.	.	8r	.	8r	.	8r	.	.
.	.	8f#	.	8a	.	8dd#X	.	#viio6/V
.	.	8r	.	8r	.	8r	.	.
.	.	8g#	.	8b	.	8ee	.	V6
.	.	8r	.	8r	.	8r	.	.
.	.	8g#	.	8b	.	8ee#X	.	#viio6/vi
.	.	8r	.	8r	.	8r	.	.
=268	=268	=268	=268	=268	=268	=268	=268	=268
4EE]	f	2a	f	2cc#	f	2ff#	f	vi6
2E	.	.	.	.	.	.	.	.
.	.	2bT	.	2ddT	.	2gg#t	.	V7]
4E	.	.	.	.	.	.	.	.
.	.	.	.	.	.	16qqff#/LL	.	.
.	.	.	.	.	.	16qqgg#/JJ	.	.
=269	=269	=269	=269	=269	=269	=269	=269	=269
4AA	ff	4a	ff	4cc#	ff	4aa	ff	I
4r	.	4r	.	4r	.	4r	.	.
4EE	.	4E 4B	.	4E 4d	.	4E 4B 4g# 4ee	.	V7
4r	.	4r	.	4r	.	4r	.	.
=270	=270	=270	=270	=270	=270	=270	=270	=270
4AAA	.	4AA 4A	.	4E 4c#	.	4E 4c# 4a	.	I\\
4r	.	4r	.	4r	.	4r	.	.
2r	.	2r	.	2r	.	2r	.	.
==	==	==	==	==	==	==	==	==
*-	*-	*-	*-	*-	*-	*-	*-	*-
!!!system-decoration: [(s1,s2,s3,s4)]
!!!YEM: 
